; generated by PrusaSlicer 2.5.0+win64 on 2023-02-11 at 17:42:56 UTC

; 

; external perimeters extrusion width = 0.42mm
; perimeters extrusion width = 0.45mm
; infill extrusion width = 0.45mm
; solid infill extrusion width = 0.45mm
; top infill extrusion width = 0.40mm
; support material extrusion width = 0.35mm
; first layer extrusion width = 0.42mm

M107
M190 S50 ; set bed temperature and wait for it to be reached
M104 S200 ; set temperature
;TYPE:Custom
G28 ;home all axes
;G29 ;Auto bed levelling
G1 F7200 X110.000 Y110.000
M109 S200 ; set temperature and wait for it to be reached
G21 ; set units to millimeters
G90 ; use absolute coordinates
M82 ; use absolute distances for extrusion
G92 E0
; Filament-specific gcode
M107
;LAYER_CHANGE
;Z:0.2
;HEIGHT:0.2
G1 Z.2 F7200
G1 E-1.5 F2100
G92 E0
G1 X88.426 Y88.426 F7200
G1 E1.5 F2100
M204 P1000
;TYPE:Skirt/Brim
;WIDTH:0.42
G1 F1800
G1 X90.733 Y86.119 E1.6023
G1 X91.645 Y85.462 E1.63754
G1 X96.259 Y83.155 E1.79929
G1 X97.828 Y82.785 E1.84984
G1 X122.172 Y82.785 E2.61311
G1 X123.741 Y83.155 E2.66366
G1 X128.355 Y85.462 E2.82541
G1 X129.267 Y86.119 E2.86065
G1 X133.881 Y90.733 E3.06525
G1 X134.538 Y91.645 E3.10049
G1 X136.845 Y96.259 E3.26224
G1 X137.215 Y97.828 E3.31278
G1 X137.215 Y122.172 E4.07606
G1 X136.845 Y123.741 E4.1266
G1 X134.538 Y128.355 E4.28835
G1 X133.881 Y129.267 E4.32359
G1 X129.267 Y133.881 E4.52819
G1 X128.355 Y134.538 E4.56343
G1 X123.741 Y136.845 E4.72518
G1 X122.172 Y137.215 E4.77573
G1 X97.828 Y137.215 E5.539
G1 X96.259 Y136.845 E5.58955
G1 X91.645 Y134.538 E5.7513
G1 X90.733 Y133.881 E5.78654
G1 X86.119 Y129.267 E5.99114
G1 X85.462 Y128.355 E6.02638
G1 X83.155 Y123.741 E6.18813
G1 X82.785 Y122.172 E6.23868
G1 X82.785 Y97.828 E7.00195
G1 X83.155 Y96.259 E7.0525
G1 X85.462 Y91.645 E7.21425
G1 X86.119 Y90.733 E7.24949
G1 X88.384 Y88.469 E7.34991
G1 X88.65 Y88.735 F7200
G1 F1800
G1 X91 Y86.386 E7.45409
G1 X91.814 Y85.799 E7.48554
G1 X96.428 Y83.492 E7.64729
G1 X97.828 Y83.162 E7.6924
G1 X122.172 Y83.162 E8.45568
G1 X123.572 Y83.492 E8.50079
G1 X128.186 Y85.799 E8.66254
G1 X129 Y86.386 E8.69399
G1 X133.614 Y91 E8.89859
G1 X134.201 Y91.814 E8.93005
G1 X136.508 Y96.428 E9.0918
G1 X136.838 Y97.828 E9.13691
G1 X136.838 Y122.172 E9.90018
G1 X136.508 Y123.572 E9.9453
G1 X134.201 Y128.186 E10.10705
G1 X133.614 Y129 E10.1385
G1 X129 Y133.614 E10.3431
G1 X128.186 Y134.201 E10.37455
G1 X123.572 Y136.508 E10.5363
G1 X122.172 Y136.838 E10.58142
G1 X97.828 Y136.838 E11.34469
G1 X96.428 Y136.508 E11.3898
G1 X91.814 Y134.201 E11.55155
G1 X91 Y133.614 E11.58301
G1 X86.386 Y129 E11.78761
G1 X85.799 Y128.186 E11.81906
G1 X83.492 Y123.572 E11.98081
G1 X83.162 Y122.172 E12.02592
G1 X83.162 Y97.828 E12.7892
G1 X83.492 Y96.428 E12.83431
G1 X85.799 Y91.814 E12.99606
G1 X86.386 Y91 E13.02751
G1 X88.608 Y88.778 E13.12605
G1 X88.875 Y89.044 F7200
G1 F1800
G1 X91.267 Y86.652 E13.23211
G1 X91.982 Y86.137 E13.25978
G1 X96.597 Y83.829 E13.42153
G1 X97.828 Y83.539 E13.46121
G1 X122.172 Y83.539 E14.22448
G1 X123.403 Y83.829 E14.26416
G1 X128.018 Y86.137 E14.42591
G1 X128.733 Y86.652 E14.45358
G1 X133.348 Y91.267 E14.65818
G1 X133.863 Y91.982 E14.68584
G1 X136.171 Y96.597 E14.84759
G1 X136.461 Y97.828 E14.88727
G1 X136.461 Y122.172 E15.65055
G1 X136.171 Y123.403 E15.69023
G1 X133.863 Y128.018 E15.85198
G1 X133.348 Y128.733 E15.87964
G1 X128.733 Y133.348 E16.08424
G1 X128.018 Y133.863 E16.11191
G1 X123.403 Y136.171 E16.27366
G1 X122.172 Y136.461 E16.31334
G1 X97.828 Y136.461 E17.07661
G1 X96.597 Y136.171 E17.11629
G1 X91.982 Y133.863 E17.27804
G1 X91.267 Y133.348 E17.30571
G1 X86.652 Y128.733 E17.51031
G1 X86.137 Y128.018 E17.53797
G1 X83.829 Y123.403 E17.69972
G1 X83.539 Y122.172 E17.7394
G1 X83.539 Y97.828 E18.50268
G1 X83.829 Y96.597 E18.54236
G1 X86.137 Y91.982 E18.70411
G1 X86.652 Y91.267 E18.73177
G1 X88.832 Y89.087 E18.82843
G1 X89.099 Y89.353 F7200
G1 F1800
G1 X91.533 Y86.919 E18.93637
G1 X92.151 Y86.474 E18.96025
G1 X96.765 Y84.167 E19.122
G1 X97.828 Y83.916 E19.15625
G1 X122.172 Y83.916 E19.91952
G1 X123.235 Y84.167 E19.95377
G1 X127.849 Y86.474 E20.11552
G1 X128.467 Y86.919 E20.1394
G1 X133.081 Y91.533 E20.344
G1 X133.526 Y92.151 E20.36787
G1 X135.833 Y96.765 E20.52963
G1 X136.084 Y97.828 E20.56387
G1 X136.084 Y122.172 E21.32715
G1 X135.833 Y123.235 E21.36139
G1 X133.526 Y127.849 E21.52315
G1 X133.081 Y128.467 E21.54702
G1 X128.467 Y133.081 E21.75162
G1 X127.849 Y133.526 E21.7755
G1 X123.235 Y135.833 E21.93725
G1 X122.172 Y136.084 E21.9715
G1 X97.828 Y136.084 E22.73477
G1 X96.765 Y135.833 E22.76902
G1 X92.151 Y133.526 E22.93077
G1 X91.533 Y133.081 E22.95465
G1 X86.919 Y128.467 E23.15925
G1 X86.474 Y127.849 E23.18312
G1 X84.167 Y123.235 E23.34487
G1 X83.916 Y122.172 E23.37912
G1 X83.916 Y97.828 E24.1424
G1 X84.167 Y96.765 E24.17664
G1 X86.474 Y92.151 E24.33839
G1 X86.919 Y91.533 E24.36227
G1 X89.056 Y89.396 E24.45705
; printing object Carrier_top_Conn8mm.stl id:0 copy 0
G1 E22.95705 F2100
G92 E0
G1 X122.172 Y88.6 F7200
G1 E1.5 F2100
;TYPE:Support material
G1 F1800
G1 X126.786 Y88.6 E1.64467
G1 X126.786 Y90.907 E1.71701
G1 X129.093 Y90.907 E1.78935
G1 X129.093 Y93.214 E1.86168
G1 X131.4 Y93.214 E1.93402
G1 X131.4 Y97.828 E2.07869
G1 X133.707 Y97.828 E2.15103
G1 X133.707 Y122.172 E2.91431
G1 X131.4 Y122.172 E2.98664
G1 X131.4 Y126.786 E3.13132
G1 X129.093 Y126.786 E3.20365
G1 X129.093 Y129.093 E3.27599
G1 X126.786 Y129.093 E3.34833
G1 X126.786 Y131.4 E3.42066
G1 X122.172 Y131.4 E3.56534
G1 X122.172 Y133.707 E3.63767
G1 X97.828 Y133.707 E4.40095
G1 X97.828 Y131.4 E4.47329
G1 X93.214 Y131.4 E4.61796
G1 X93.214 Y129.093 E4.6903
G1 X90.907 Y129.093 E4.76263
G1 X90.907 Y126.786 E4.83497
G1 X88.6 Y126.786 E4.90731
G1 X88.6 Y122.172 E5.05198
G1 X86.293 Y122.172 E5.12432
G1 X86.293 Y97.828 E5.88759
G1 X88.6 Y97.828 E5.95993
G1 X88.6 Y93.214 E6.1046
G1 X90.907 Y93.214 E6.17694
G1 X90.907 Y90.907 E6.24928
G1 X93.214 Y90.907 E6.32161
G1 X93.214 Y88.6 E6.39395
G1 X97.828 Y88.6 E6.53862
G1 X97.828 Y86.293 E6.61096
G1 X122.172 Y86.293 E7.37424
G1 X122.172 Y88.543 E7.4448
G1 X109.908 Y105.581 F7200
G1 F1800
G1 X109.334 Y105.631 E7.46287
G1 X108.771 Y105.754 E7.48095
G1 X108.229 Y105.95 E7.49902
G1 X107.812 Y106.16 E7.51366
G1 X107.33 Y106.477 E7.53173
G1 X106.899 Y106.851 E7.54963
G1 X106.515 Y107.281 E7.56771
G1 X106.192 Y107.757 E7.58574
G1 X106.108 Y107.903 E7.59102
G1 X106.08 Y108.009 E7.59445
G1 X106.08 Y111.991 E7.71932
G1 X106.108 Y112.097 E7.72275
G1 X106.314 Y112.439 E7.73525
G1 X106.516 Y112.719 E7.7461
G1 X106.735 Y112.98 E7.75678
G1 X107.155 Y113.383 E7.77502
G1 X107.428 Y113.595 E7.78587
G1 X107.713 Y113.782 E7.79654
G1 X108.224 Y114.048 E7.81462
G1 X108.772 Y114.246 E7.83287
G1 X109.107 Y114.329 E7.84371
G1 X109.443 Y114.385 E7.85439
G1 X110.024 Y114.42 E7.87264
G1 X110.485 Y114.393 E7.8871
G1 X110.934 Y114.32 E7.90139
G1 X111.275 Y114.232 E7.91242
G1 X111.709 Y114.076 E7.92688
G1 X112.125 Y113.876 E7.94134
G1 X112.512 Y113.636 E7.95563
G1 X112.878 Y113.355 E7.9701
G1 X113.135 Y113.116 E7.98112
G1 X113.439 Y112.776 E7.99541
G1 X113.71 Y112.403 E8.00987
G1 X113.94 Y112.003 E8.02433
G1 X114.087 Y111.683 E8.03535
G1 X114.238 Y111.254 E8.04964
G1 X114.346 Y110.805 E8.06411
G1 X114.396 Y110.457 E8.07513
G1 X114.42 Y109.997 E8.08957
G1 X114.396 Y109.537 E8.10403
G1 X114.325 Y109.086 E8.11832
G1 X114.238 Y108.746 E8.12934
G1 X114.084 Y108.311 E8.14381
G1 X113.889 Y107.899 E8.1581
G1 X113.649 Y107.505 E8.17256
G1 X113.369 Y107.139 E8.18702
G1 X113.131 Y106.88 E8.19804
G1 X112.789 Y106.571 E8.21251
G1 X112.421 Y106.302 E8.2268
G1 X112.022 Y106.07 E8.24126
G1 X111.703 Y105.921 E8.25228
G1 X111.274 Y105.768 E8.26657
G1 X110.826 Y105.658 E8.28103
G1 X110.369 Y105.595 E8.2955
G1 X109.965 Y105.58 E8.30819
G1 E6.80819 F2100
G92 E0
G1 X111.294 Y106.856 F7200
G1 X112.902 Y108.228
G1 X112.942 Y108.296
G1 X133.044 Y122.002
G1 E1.5 F2100
G1 F1800
G1 X133.044 Y98.168 E2.24731
G1 X132.625 Y98.168 E2.26045
G1 X132.625 Y121.832 E3.00244
G1 X132.206 Y121.832 E3.01558
G1 X132.206 Y98.168 E3.75757
G1 X131.787 Y98.168 E3.77071
G1 X131.787 Y121.832 E4.5127
G1 X131.368 Y121.832 E4.52584
G1 X131.368 Y98.168 E5.26783
G1 X131.061 Y98.168 E5.27746
G1 X131.061 Y93.553 E5.42214
G1 X130.949 Y93.553 E5.42564
G1 X130.949 Y126.447 E6.45698
G1 X130.53 Y126.447 E6.47012
G1 X130.53 Y93.553 E7.50146
G1 X130.111 Y93.553 E7.5146
G1 X130.111 Y126.447 E8.54594
G1 X129.692 Y126.447 E8.55907
G1 X129.692 Y93.553 E9.59041
G1 X129.273 Y93.553 E9.60355
G1 X129.273 Y126.447 E10.63489
G1 X128.854 Y126.447 E10.64803
G1 X128.854 Y93.553 E11.67937
G1 X128.754 Y93.553 E11.68251
G1 X128.754 Y91.246 E11.75485
G1 X128.435 Y91.246 E11.76484
G1 X128.435 Y128.754 E12.94086
G1 X128.016 Y128.754 E12.95399
G1 X128.016 Y91.246 E14.13001
G1 X127.597 Y91.246 E14.14314
G1 X127.597 Y128.754 E15.31916
G1 X127.178 Y128.754 E15.33229
G1 X127.178 Y91.246 E16.50831
G1 X126.759 Y91.246 E16.52145
G1 X126.759 Y128.754 E17.69746
G1 X126.447 Y128.754 E17.70726
G1 X126.447 Y131.061 E17.7796
G1 X126.34 Y131.061 E17.78293
G1 X126.34 Y88.939 E19.10362
G1 X125.921 Y88.939 E19.11676
G1 X125.921 Y131.061 E20.43745
G1 X125.502 Y131.061 E20.45058
G1 X125.502 Y88.939 E21.77127
G1 X125.083 Y88.939 E21.78441
G1 X125.083 Y131.061 E23.10509
G1 X124.664 Y131.061 E23.11823
G1 X124.664 Y88.939 E24.43892
G1 X124.245 Y88.939 E24.45206
G1 X124.245 Y131.061 E25.77274
G1 X123.826 Y131.061 E25.78588
G1 X123.826 Y88.939 E27.10657
G1 X123.407 Y88.939 E27.11971
G1 X123.407 Y131.061 E28.44039
G1 X122.988 Y131.061 E28.45353
G1 X122.988 Y88.939 E29.77422
G1 X122.569 Y88.939 E29.78735
G1 X122.569 Y131.061 E31.10804
G1 X122.15 Y131.061 E31.12118
G1 X122.15 Y88.939 E32.44187
G1 X121.832 Y88.939 E32.45184
G1 X121.832 Y86.632 E32.52417
G1 X121.731 Y86.632 E32.52734
G1 X121.731 Y133.368 E33.9927
G1 X121.312 Y133.368 E34.00584
G1 X121.312 Y86.632 E35.4712
G1 X120.893 Y86.632 E35.48434
G1 X120.893 Y133.368 E36.9497
G1 X120.474 Y133.368 E36.96284
G1 X120.474 Y86.632 E38.4282
G1 X120.055 Y86.632 E38.44133
G1 X120.055 Y133.368 E39.9067
G1 X119.636 Y133.368 E39.91983
G1 X119.636 Y86.632 E41.38519
G1 X119.217 Y86.632 E41.39833
G1 X119.217 Y133.368 E42.86369
G1 X118.799 Y133.368 E42.87683
G1 X118.799 Y86.632 E44.34219
G1 X118.38 Y86.632 E44.35533
G1 X118.38 Y133.368 E45.82069
G1 X117.961 Y133.368 E45.83383
G1 X117.961 Y86.632 E47.29919
G1 X117.542 Y86.632 E47.31232
G1 X117.542 Y133.368 E48.77769
G1 X117.123 Y133.368 E48.79082
G1 X117.123 Y86.632 E50.25618
G1 X116.704 Y86.632 E50.26932
G1 X116.704 Y133.368 E51.73468
G1 X116.285 Y133.368 E51.74782
G1 X116.285 Y86.632 E53.21318
G1 X115.866 Y86.632 E53.22632
G1 X115.866 Y133.368 E54.69168
G1 X115.447 Y133.368 E54.70481
G1 X115.447 Y86.632 E56.17018
G1 X115.028 Y86.632 E56.18331
G1 X115.028 Y133.368 E57.64867
G1 X114.609 Y133.368 E57.66181
G1 X114.609 Y86.632 E59.12717
G1 X114.19 Y86.632 E59.14031
G1 X114.19 Y107.742 E59.8022
G1 X113.993 Y107.411 E59.81429
G1 X113.771 Y107.096 E59.82637
G1 X113.771 Y86.632 E60.468
G1 X113.352 Y86.632 E60.48114
G1 X113.352 Y106.621 E61.10789
G1 X112.933 Y106.252 E61.1254
G1 X112.933 Y86.632 E61.74057
G1 X112.514 Y86.632 E61.7537
G1 X112.514 Y105.959 E62.35968
G1 X112.095 Y105.727 E62.3747
G1 X112.095 Y86.632 E62.97339
G1 X111.676 Y86.632 E62.98653
G1 X111.676 Y105.546 E63.57955
G1 X111.257 Y105.41 E63.59336
G1 X111.257 Y86.632 E64.18212
G1 X110.838 Y86.632 E64.19525
G1 X110.838 Y105.315 E64.78105
G1 X110.419 Y105.259 E64.7943
G1 X110.419 Y86.632 E65.37834
G1 X110 Y86.632 E65.39148
G1 X110 Y105.241 E65.97494
G1 X109.581 Y105.259 E65.98809
G1 X109.581 Y86.632 E66.57213
G1 X109.162 Y86.632 E66.58527
G1 X109.162 Y105.315 E67.17105
G1 X108.743 Y105.41 E67.18452
G1 X108.743 Y86.632 E67.77329
G1 X108.324 Y86.632 E67.78642
G1 X108.324 Y105.545 E68.37944
G1 X107.905 Y105.727 E68.39375
G1 X107.905 Y86.632 E68.99245
G1 X107.486 Y86.632 E69.00559
G1 X107.486 Y105.959 E69.61157
G1 X107.067 Y106.252 E69.6276
G1 X107.067 Y86.632 E70.24276
G1 X106.648 Y86.632 E70.2559
G1 X106.648 Y106.621 E70.88264
G1 X106.229 Y107.096 E70.90251
G1 X106.229 Y86.632 E71.54415
G1 X105.81 Y86.632 E71.55728
G1 X105.81 Y133.368 E73.02265
G1 X106.229 Y133.368 E73.03578
G1 X106.229 Y112.904 E73.67742
G1 X106.648 Y113.379 E73.69729
G1 X106.648 Y133.368 E74.32403
G1 X107.067 Y133.368 E74.33717
G1 X107.067 Y113.748 E74.95233
G1 X107.486 Y114.041 E74.96836
G1 X107.486 Y133.368 E75.57435
G1 X107.905 Y133.368 E75.58748
G1 X107.905 Y114.273 E76.18618
G1 X108.324 Y114.455 E76.2005
G1 X108.324 Y133.368 E76.79351
G1 X108.743 Y133.368 E76.80664
G1 X108.743 Y114.59 E77.39541
G1 X109.162 Y114.685 E77.40888
G1 X109.162 Y133.368 E77.99466
G1 X109.581 Y133.368 E78.0078
G1 X109.581 Y114.741 E78.59184
G1 X110 Y114.759 E78.60499
G1 X110 Y133.368 E79.18845
G1 X110.419 Y133.368 E79.20159
G1 X110.419 Y114.741 E79.78563
G1 X110.838 Y114.685 E79.79888
G1 X110.838 Y133.368 E80.38468
G1 X111.257 Y133.368 E80.39781
G1 X111.257 Y114.59 E80.98657
G1 X111.676 Y114.454 E81.00038
G1 X111.676 Y133.368 E81.5934
G1 X112.095 Y133.368 E81.60654
G1 X112.095 Y114.273 E82.20524
G1 X112.514 Y114.041 E82.22025
G1 X112.514 Y133.368 E82.82623
G1 X112.933 Y133.368 E82.83936
G1 X112.933 Y113.748 E83.45453
G1 X113.352 Y113.379 E83.47204
G1 X113.352 Y133.368 E84.09879
G1 X113.771 Y133.368 E84.11193
G1 X113.771 Y112.904 E84.75357
G1 X113.994 Y112.589 E84.76567
G1 X114.19 Y112.258 E84.77773
G1 X114.19 Y133.537 E85.44494
G1 X105.391 Y133.537 F7200
G1 F1800
G1 X105.391 Y86.632 E86.91562
G1 X104.972 Y86.632 E86.92876
G1 X104.972 Y133.368 E88.39412
G1 X104.553 Y133.368 E88.40726
G1 X104.553 Y86.632 E89.87262
G1 X104.134 Y86.632 E89.88576
G1 X104.134 Y133.368 E91.35112
G1 X103.715 Y133.368 E91.36426
G1 X103.715 Y86.632 E92.82962
G1 X103.296 Y86.632 E92.84275
G1 X103.296 Y133.368 E94.30812
G1 X102.877 Y133.368 E94.32125
G1 X102.877 Y86.632 E95.78661
G1 X102.458 Y86.632 E95.79975
G1 X102.458 Y133.368 E97.26511
G1 X102.039 Y133.368 E97.27825
G1 X102.039 Y86.632 E98.74361
G1 X101.62 Y86.632 E98.75675
G1 X101.62 Y133.368 E100.22211
G1 X101.201 Y133.368 E100.23525
G1 X101.201 Y86.632 E101.70061
G1 X100.783 Y86.632 E101.71374
G1 X100.783 Y133.368 E103.17911
G1 X100.364 Y133.368 E103.19224
G1 X100.364 Y86.632 E104.6576
G1 X99.945 Y86.632 E104.67074
G1 X99.945 Y133.368 E106.1361
G1 X99.526 Y133.368 E106.14924
G1 X99.526 Y86.632 E107.6146
G1 X99.107 Y86.632 E107.62774
G1 X99.107 Y133.368 E109.0931
G1 X98.688 Y133.368 E109.10624
G1 X98.688 Y86.632 E110.5716
G1 X98.269 Y86.632 E110.58473
G1 X98.269 Y133.368 E112.0501
G1 X98.168 Y133.368 E112.05326
G1 X98.168 Y131.061 E112.1256
G1 X97.85 Y131.061 E112.13557
G1 X97.85 Y88.939 E113.45626
G1 X97.431 Y88.939 E113.46939
G1 X97.431 Y131.061 E114.79008
G1 X97.012 Y131.061 E114.80322
G1 X97.012 Y88.939 E116.12391
G1 X96.593 Y88.939 E116.13704
G1 X96.593 Y131.061 E117.45773
G1 X96.174 Y131.061 E117.47087
G1 X96.174 Y88.939 E118.79156
G1 X95.755 Y88.939 E118.80469
G1 X95.755 Y131.061 E120.12538
G1 X95.336 Y131.061 E120.13852
G1 X95.336 Y88.939 E121.4592
G1 X94.917 Y88.939 E121.47234
G1 X94.917 Y131.061 E122.79303
G1 X94.498 Y131.061 E122.80617
G1 X94.498 Y88.939 E124.12685
G1 X94.079 Y88.939 E124.13999
G1 X94.079 Y131.061 E125.46068
G1 X93.66 Y131.061 E125.47382
G1 X93.66 Y88.939 E126.7945
G1 X93.553 Y88.939 E126.79784
G1 X93.553 Y91.246 E126.87018
G1 X93.241 Y91.246 E126.87998
G1 X93.241 Y128.754 E128.05599
G1 X92.822 Y128.754 E128.06913
G1 X92.822 Y91.246 E129.24514
G1 X92.403 Y91.246 E129.25828
G1 X92.403 Y128.754 E130.43429
G1 X91.984 Y128.754 E130.44743
G1 X91.984 Y91.246 E131.62344
G1 X91.565 Y91.246 E131.63658
G1 X91.565 Y128.754 E132.81259
G1 X91.246 Y128.754 E132.82259
G1 X91.246 Y126.447 E132.89492
G1 X91.146 Y126.447 E132.89807
G1 X91.146 Y93.553 E133.92941
G1 X90.727 Y93.553 E133.94255
G1 X90.727 Y126.447 E134.97389
G1 X90.308 Y126.447 E134.98702
G1 X90.308 Y93.553 E136.01836
G1 X89.889 Y93.553 E136.0315
G1 X89.889 Y126.447 E137.06284
G1 X89.47 Y126.447 E137.07598
G1 X89.47 Y93.553 E138.10732
G1 X89.051 Y93.553 E138.12045
G1 X89.051 Y126.447 E139.15179
G1 X88.939 Y126.447 E139.1553
G1 X88.939 Y121.832 E139.29997
G1 X88.632 Y121.832 E139.3096
