; generated by PrusaSlicer 2.5.0+win64 on 2023-02-10 at 12:54:21 UTC

; 

; external perimeters extrusion width = 0.42mm
; perimeters extrusion width = 0.45mm
; infill extrusion width = 0.45mm
; solid infill extrusion width = 0.45mm
; top infill extrusion width = 0.40mm
; first layer extrusion width = 0.42mm

M107
M190 S50 ; set bed temperature and wait for it to be reached
M104 S200 ; set temperature
;TYPE:Custom
G28 ;home all axes
;G29 ;Auto bed levelling
G1 F7200 X110.000 Y110.000
M109 S200 ; set temperature and wait for it to be reached
G21 ; set units to millimeters
G90 ; use absolute coordinates
M82 ; use absolute distances for extrusion
G92 E0
; Filament-specific gcode
M107
;LAYER_CHANGE
;Z:0.2
;HEIGHT:0.2
G1 Z.2 F7200
G1 E-1.5 F2100
G92 E0
G1 X93.592 Y93.058 F7200
G1 E1.5 F2100
M204 P1000
;TYPE:Skirt/Brim
;WIDTH:0.42
G1 F1800
G1 X95.384 Y91.49 E1.57467
G1 X97.183 Y90.201 E1.64404
G1 X99.262 Y89.001 E1.71932
G1 X101.196 Y88.119 E1.78596
G1 X103.466 Y87.338 E1.86124
G1 X105.533 Y86.842 E1.92788
G1 X107.911 Y86.507 E2.00316
G1 X110.29 Y86.417 E2.07783
G1 X112.499 Y86.547 E2.1472
G1 X114.87 Y86.923 E2.22248
G1 X116.928 Y87.455 E2.28912
G1 X119.247 Y88.303 E2.36652
G1 X121.405 Y89.355 E2.44181
G1 X123.428 Y90.611 E2.51648
G1 X125.186 Y91.954 E2.58585
G1 X126.942 Y93.592 E2.66113
G1 X128.405 Y95.252 E2.7305
G1 X129.799 Y97.183 E2.80517
G1 X130.999 Y99.262 E2.88045
G1 X131.881 Y101.196 E2.94709
G1 X132.662 Y103.466 E3.02237
G1 X133.158 Y105.533 E3.08901
G1 X133.498 Y107.978 E3.16641
G1 X133.582 Y110.378 E3.24169
G1 X133.414 Y112.841 E3.3191
G1 X133.063 Y114.937 E3.38573
G1 X132.441 Y117.256 E3.46102
G1 X131.697 Y119.247 E3.52765
G1 X130.645 Y121.405 E3.60294
G1 X129.389 Y123.428 E3.67761
G1 X128.046 Y125.186 E3.74698
G1 X126.408 Y126.942 E3.82226
G1 X124.816 Y128.351 E3.8889
G1 X122.874 Y129.762 E3.96418
G1 X120.815 Y130.959 E4.03885
G1 X118.804 Y131.881 E4.10822
G1 X116.468 Y132.681 E4.18562
G1 X114.129 Y133.221 E4.2609
G1 X112.022 Y133.498 E4.32754
G1 X109.622 Y133.582 E4.40282
G1 X107.246 Y133.423 E4.47749
G1 X105.063 Y133.063 E4.54686
G1 X102.744 Y132.441 E4.62214
G1 X100.753 Y131.697 E4.68878
G1 X98.595 Y130.645 E4.76406
G1 X96.572 Y129.389 E4.83874
G1 X94.814 Y128.046 E4.90811
G1 X93.058 Y126.408 E4.98339
G1 X91.649 Y124.816 E5.05002
G1 X90.238 Y122.874 E5.1253
G1 X89.041 Y120.815 E5.19998
G1 X88.119 Y118.804 E5.26935
G1 X87.338 Y116.534 E5.34463
G1 X86.842 Y114.467 E5.41127
G1 X86.502 Y112.022 E5.48867
G1 X86.418 Y109.622 E5.56395
G1 X86.586 Y107.159 E5.64136
G1 X86.937 Y105.063 E5.70799
G1 X87.559 Y102.744 E5.78327
G1 X88.303 Y100.753 E5.84991
G1 X89.355 Y98.595 E5.92519
G1 X90.611 Y96.572 E5.99986
G1 X91.954 Y94.814 E6.06923
G1 X93.551 Y93.102 E6.14264
G1 X93.827 Y93.359 F7200
G1 F1800
G1 X95.418 Y91.945 E6.20939
G1 X97.334 Y90.553 E6.28364
G1 X99.359 Y89.376 E6.35708
G1 X101.334 Y88.47 E6.42521
G1 X103.574 Y87.699 E6.49946
G1 X105.602 Y87.212 E6.56486
G1 X107.947 Y86.883 E6.63911
G1 X110.287 Y86.794 E6.71254
G1 X112.456 Y86.922 E6.78067
G1 X114.795 Y87.293 E6.85493
G1 X116.815 Y87.815 E6.92033
G1 X119.096 Y88.649 E6.99649
G1 X121.225 Y89.687 E7.07074
G1 X123.215 Y90.922 E7.14418
G1 X124.941 Y92.241 E7.21231
G1 X126.673 Y93.856 E7.28656
G1 X128.055 Y95.418 E7.35196
G1 X129.481 Y97.386 E7.42812
G1 X130.665 Y99.436 E7.50238
G1 X131.53 Y101.334 E7.56778
G1 X132.301 Y103.574 E7.64203
G1 X132.788 Y105.602 E7.70743
G1 X133.123 Y108.008 E7.78359
G1 X133.205 Y110.374 E7.85784
G1 X133.039 Y112.798 E7.93401
G1 X132.695 Y114.855 E7.99941
G1 X132.082 Y117.143 E8.07366
G1 X131.351 Y119.096 E8.13906
G1 X130.313 Y121.225 E8.21331
G1 X129.078 Y123.215 E8.28674
G1 X127.759 Y124.941 E8.35488
G1 X126.144 Y126.673 E8.42913
G1 X124.381 Y128.215 E8.50256
G1 X122.614 Y129.481 E8.57069
G1 X120.564 Y130.665 E8.64494
G1 X118.666 Y131.53 E8.71034
G1 X116.368 Y132.318 E8.78651
G1 X114.06 Y132.85 E8.86076
G1 X111.992 Y133.123 E8.92616
G1 X109.626 Y133.205 E9.00041
G1 X107.289 Y133.049 E9.07384
G1 X105.145 Y132.695 E9.14198
G1 X102.857 Y132.082 E9.21623
G1 X100.904 Y131.351 E9.28162
G1 X98.775 Y130.313 E9.35588
G1 X96.785 Y129.078 E9.42931
G1 X95.059 Y127.759 E9.49744
G1 X93.327 Y126.144 E9.57169
G1 X91.785 Y124.381 E9.64513
G1 X90.519 Y122.614 E9.71326
G1 X89.335 Y120.564 E9.78751
G1 X88.47 Y118.666 E9.85291
G1 X87.699 Y116.426 E9.92716
G1 X87.212 Y114.398 E9.99256
G1 X86.877 Y111.992 E10.06872
G1 X86.795 Y109.626 E10.14297
G1 X86.961 Y107.202 E10.21914
G1 X87.305 Y105.145 E10.28454
G1 X87.918 Y102.857 E10.35879
G1 X88.649 Y100.904 E10.42419
G1 X89.687 Y98.775 E10.49844
G1 X90.922 Y96.785 E10.57188
G1 X92.241 Y95.059 E10.64001
G1 X93.786 Y93.402 E10.71101
G1 X94.061 Y93.659 F7200
G1 F1800
G1 X95.653 Y92.24 E10.77789
G1 X97.542 Y90.867 E10.85111
G1 X99.533 Y89.71 E10.92331
G1 X101.473 Y88.821 E10.9902
G1 X103.681 Y88.061 E11.06342
G1 X105.67 Y87.583 E11.12758
G1 X107.983 Y87.258 E11.2008
G1 X110.284 Y87.171 E11.273
G1 X112.414 Y87.297 E11.33989
G1 X114.72 Y87.662 E11.41311
G1 X116.701 Y88.174 E11.47727
G1 X118.946 Y88.995 E11.5522
G1 X121.045 Y90.018 E11.62542
G1 X123.001 Y91.233 E11.69762
G1 X124.697 Y92.528 E11.76451
G1 X126.404 Y94.121 E11.83773
G1 X127.815 Y95.721 E11.90463
G1 X129.163 Y97.588 E11.97682
G1 X130.33 Y99.611 E12.05004
G1 X131.179 Y101.473 E12.1142
G1 X131.939 Y103.681 E12.18742
G1 X132.417 Y105.67 E12.25158
G1 X132.747 Y108.037 E12.32651
G1 X132.828 Y110.371 E12.39973
G1 X132.703 Y112.414 E12.46389
G1 X132.338 Y114.72 E12.53711
G1 X131.826 Y116.701 E12.60127
G1 X131.005 Y118.946 E12.6762
G1 X129.982 Y121.045 E12.74942
G1 X128.767 Y123.001 E12.82162
G1 X127.472 Y124.697 E12.88851
G1 X125.879 Y126.404 E12.96173
G1 X124.347 Y127.76 E13.0259
G1 X122.458 Y129.133 E13.09911
G1 X120.467 Y130.29 E13.17131
G1 X118.527 Y131.179 E13.2382
G1 X116.267 Y131.954 E13.31313
G1 X113.992 Y132.48 E13.38635
G1 X111.963 Y132.747 E13.45051
G1 X109.629 Y132.828 E13.52373
G1 X107.586 Y132.703 E13.58789
G1 X105.28 Y132.338 E13.66111
G1 X103.299 Y131.826 E13.72528
G1 X101.054 Y131.005 E13.80021
G1 X98.955 Y129.982 E13.87343
G1 X96.999 Y128.767 E13.94562
G1 X95.303 Y127.472 E14.01252
G1 X93.596 Y125.879 E14.08574
G1 X92.24 Y124.347 E14.1499
G1 X90.867 Y122.458 E14.22311
G1 X89.71 Y120.467 E14.29531
G1 X88.821 Y118.527 E14.36221
G1 X88.061 Y116.319 E14.43543
G1 X87.583 Y114.33 E14.49959
G1 X87.253 Y111.963 E14.57452
G1 X87.172 Y109.629 E14.64774
G1 X87.297 Y107.586 E14.7119
G1 X87.662 Y105.28 E14.78512
G1 X88.174 Y103.299 E14.84928
G1 X88.995 Y101.054 E14.92421
G1 X90.018 Y98.955 E14.99743
G1 X91.233 Y96.999 E15.06962
G1 X92.528 Y95.304 E15.13652
G1 X94.02 Y93.703 E15.20513
G1 X94.296 Y93.96 F7200
G1 F1800
G1 X94.385 Y93.865 E15.20922
G1 X96.089 Y92.375 E15.28018
G1 X97.791 Y91.155 E15.34584
G1 X99.785 Y90.004 E15.41802
G1 X101.611 Y89.172 E15.48095
G1 X103.788 Y88.422 E15.55314
G1 X105.739 Y87.954 E15.61606
G1 X108.019 Y87.633 E15.68825
G1 X110.281 Y87.548 E15.75921
G1 X112.371 Y87.671 E15.82486
G1 X114.645 Y88.032 E15.89705
G1 X116.588 Y88.534 E15.95997
G1 X118.796 Y89.34 E16.03367
G1 X120.865 Y90.35 E16.10586
G1 X122.788 Y91.544 E16.17681
G1 X124.452 Y92.815 E16.24247
G1 X126.135 Y94.385 E16.31466
G1 X127.465 Y95.888 E16.37758
G1 X128.845 Y97.791 E16.45127
G1 X129.996 Y99.785 E16.52346
G1 X130.828 Y101.611 E16.58639
G1 X131.578 Y103.788 E16.65857
G1 X132.046 Y105.739 E16.7215
G1 X132.371 Y108.067 E16.79519
G1 X132.451 Y110.368 E16.86738
G1 X132.29 Y112.713 E16.94107
G1 X131.958 Y114.692 E17.004
G1 X131.363 Y116.916 E17.07618
G1 X130.66 Y118.796 E17.13911
G1 X129.65 Y120.865 E17.21129
G1 X128.456 Y122.788 E17.28225
G1 X127.185 Y124.452 E17.34791
G1 X125.615 Y126.135 E17.4201
G1 X123.911 Y127.625 E17.49106
G1 X122.209 Y128.845 E17.55671
G1 X120.215 Y129.996 E17.6289
G1 X118.389 Y130.828 E17.69182
G1 X116.166 Y131.591 E17.76552
G1 X113.923 Y132.109 E17.8377
G1 X111.933 Y132.371 E17.90063
G1 X109.632 Y132.451 E17.97282
G1 X107.287 Y132.29 E18.04651
G1 X105.308 Y131.958 E18.10943
G1 X103.084 Y131.363 E18.18162
G1 X101.204 Y130.66 E18.24454
G1 X99.135 Y129.65 E18.31673
G1 X97.212 Y128.456 E18.38769
G1 X95.548 Y127.185 E18.45335
G1 X93.865 Y125.615 E18.52554
G1 X92.375 Y123.911 E18.59649
G1 X91.155 Y122.209 E18.66215
G1 X90.004 Y120.215 E18.73434
G1 X89.172 Y118.389 E18.79726
G1 X88.422 Y116.212 E18.86945
G1 X87.954 Y114.261 E18.93237
G1 X87.629 Y111.933 E19.00607
G1 X87.549 Y109.632 E19.07825
G1 X87.71 Y107.287 E19.15195
G1 X88.042 Y105.308 E19.21487
G1 X88.637 Y103.084 E19.28706
G1 X89.34 Y101.204 E19.34998
G1 X90.35 Y99.135 E19.42217
G1 X91.544 Y97.212 E19.49313
G1 X92.815 Y95.548 E19.55879
G1 X94.255 Y94.004 E19.625
G1 X94.53 Y94.261 F7200
G1 F1800
G1 X94.649 Y94.134 E19.63046
G1 X96.123 Y92.83 E19.69214
G1 X97.959 Y91.496 E19.7633
G1 X99.881 Y90.379 E19.83302
G1 X101.749 Y89.523 E19.89744
G1 X103.895 Y88.784 E19.9686
G1 X105.808 Y88.325 E20.03028
G1 X108.055 Y88.009 E20.10144
G1 X110.277 Y87.925 E20.17116
G1 X112.328 Y88.046 E20.23558
G1 X114.57 Y88.401 E20.30674
G1 X116.475 Y88.894 E20.36842
G1 X118.645 Y89.686 E20.44088
G1 X120.685 Y90.681 E20.51203
G1 X122.574 Y91.854 E20.58176
G1 X124.207 Y93.101 E20.64618
G1 X125.866 Y94.649 E20.71733
G1 X127.224 Y96.191 E20.78175
G1 X128.527 Y97.993 E20.85147
G1 X129.661 Y99.959 E20.92263
G1 X130.477 Y101.749 E20.98431
G1 X131.216 Y103.895 E21.05547
G1 X131.675 Y105.808 E21.11716
G1 X131.995 Y108.096 E21.18961
G1 X132.074 Y110.365 E21.26077
G1 X131.954 Y112.328 E21.32245
G1 X131.599 Y114.57 E21.39361
G1 X131.106 Y116.475 E21.4553
G1 X130.314 Y118.645 E21.52775
G1 X129.319 Y120.685 E21.59891
G1 X128.146 Y122.574 E21.66863
G1 X126.899 Y124.207 E21.73305
G1 X125.351 Y125.866 E21.80421
G1 X123.877 Y127.17 E21.86589
G1 X122.041 Y128.504 E21.93705
G1 X120.119 Y129.621 E22.00677
G1 X118.251 Y130.477 E22.07119
G1 X116.065 Y131.227 E22.14364
G1 X113.854 Y131.738 E22.2148
G1 X111.904 Y131.995 E22.27649
G1 X109.635 Y132.074 E22.34764
G1 X107.672 Y131.954 E22.40933
G1 X105.43 Y131.599 E22.48049
G1 X103.525 Y131.106 E22.54217
G1 X101.355 Y130.314 E22.61463
G1 X99.315 Y129.319 E22.68578
G1 X97.426 Y128.146 E22.7555
G1 X95.793 Y126.899 E22.81992
G1 X94.134 Y125.351 E22.89108
G1 X92.83 Y123.877 E22.95277
G1 X91.496 Y122.041 E23.02392
G1 X90.379 Y120.119 E23.09364
G1 X89.523 Y118.251 E23.15806
G1 X88.784 Y116.105 E23.22922
G1 X88.325 Y114.192 E23.29091
G1 X88.005 Y111.904 E23.36336
G1 X87.926 Y109.635 E23.43452
G1 X88.046 Y107.672 E23.4962
G1 X88.401 Y105.43 E23.56736
G1 X88.894 Y103.525 E23.62905
G1 X89.686 Y101.355 E23.7015
G1 X90.681 Y99.315 E23.77266
G1 X91.854 Y97.426 E23.84238
G1 X93.101 Y95.793 E23.9068
G1 X94.489 Y94.305 E23.97061
; printing object Carrier_bottom.stl id:0 copy 0
G1 E22.47061 F2100
G92 E0
G1 X128.043 Y108.014 F7200
G1 E1.5 F2100
;TYPE:Perimeter
;WIDTH:0.419999
G1 F720
G1 X127.768 Y107.729 E1.51243
G1 X127.299 Y107.387 E1.53062
G1 X126.759 Y107.135 E1.54932
G1 X126.153 Y106.989 E1.56887
G1 X125.571 Y106.967 E1.58713
G1 X125.036 Y107.045 E1.60407
G1 X124.548 Y107.206 E1.6202
G1 X124.064 Y107.47 E1.63746
G1 X123.613 Y107.837 E1.6557
G1 X123.273 Y108.241 E1.67224
G1 X122.98 Y108.758 E1.69089
G1 X122.792 Y107.466 E1.73184
G1 X122.646 Y106.815 E1.75275
G1 X122.462 Y106.159 E1.77413
G1 X122.268 Y105.577 E1.79335
G1 X122.08 Y105.094 E1.8096
G1 X121.494 Y103.84 E1.853
G1 X121.157 Y103.248 E1.87436
G1 X120.789 Y102.674 E1.89574
G1 X120.391 Y102.121 E1.91711
G1 X119.959 Y101.582 E1.93875
G1 X119.195 Y100.752 E1.97413
G1 X118.75 Y100.33 E1.99336
G1 X118.348 Y99.985 E2.00996
G1 X118.866 Y99.863 E2.02664
G1 X119.372 Y99.707 E2.04323
G1 X119.871 Y99.431 E2.06111
G1 X120.13 Y99.239 E2.0712
G1 X120.626 Y98.768 E2.09266
G1 X120.873 Y98.455 E2.10517
G1 X121.278 Y97.722 E2.13144
G1 X121.458 Y97.12 E2.15112
G1 X121.505 Y96.802 E2.16121
G1 X121.505 Y95.957 E2.1877
G1 X122.384 Y96.72 E2.2242
G1 X123.066 Y97.39 E2.25419
G1 X123.49 Y97.845 E2.2737
G1 X124.112 Y98.573 E2.30369
G1 X124.69 Y99.327 E2.3335
G1 X125.232 Y100.115 E2.36349
G1 X125.562 Y100.643 E2.38299
G1 X126.033 Y101.475 E2.41299
G1 X126.457 Y102.326 E2.44279
G1 X126.836 Y103.198 E2.4726
G1 X127.171 Y104.094 E2.50259
G1 X127.363 Y104.685 E2.5221
G1 X127.619 Y105.607 E2.55209
G1 X127.825 Y106.535 E2.58189
G1 X127.982 Y107.473 E2.6117
G1 X128.036 Y107.955 E2.62691
G1 E1.12691 F2100
G92 E0
G1 X127.804 Y110.216 F7200
G1 X127.8 Y110.252
G1 X127.796 Y110.287
G1 X127.79 Y110.327
G1 X127.784 Y110.359
G1 X127.778 Y110.394
G1 X127.771 Y110.429
G1 X127.763 Y110.465
G1 X127.754 Y110.5
G1 X127.744 Y110.539
G1 X127.735 Y110.571
G1 X127.725 Y110.604
G1 X127.713 Y110.642
G1 X127.703 Y110.672
G1 X127.691 Y110.707
G1 X127.677 Y110.745
G1 X127.665 Y110.776
G1 X127.652 Y110.807
G1 X127.637 Y110.84
G1 X127.62 Y110.877
G1 X127.606 Y110.907
G1 X127.591 Y110.938
G1 X127.574 Y110.97
G1 X127.555 Y111.005
G1 X127.539 Y111.033
G1 X127.518 Y111.068
G1 X127.502 Y111.095
G1 X127.482 Y111.125
G1 X127.463 Y111.155
G1 X127.442 Y111.185
G1 X127.421 Y111.214
G1 X127.4 Y111.243
G1 X127.378 Y111.272
G1 X127.353 Y111.303
G1 X127.332 Y111.328
G1 X127.309 Y111.355
G1 X127.282 Y111.385
G1 X127.261 Y111.409
G1 X127.236 Y111.435
G1 X127.211 Y111.461
G1 X127.185 Y111.486
G1 X118.351 Y120.013
G1 E1.5 F2100
G1 F720
G1 X118.89 Y119.537 E1.52253
G1 X119.486 Y118.935 E1.54911
G1 X120.032 Y118.332 E1.5746
G1 X120.432 Y117.825 E1.59487
G1 X120.827 Y117.269 E1.61625
G1 X121.192 Y116.693 E1.63763
G1 X121.537 Y116.078 E1.65974
G1 X121.983 Y115.143 E1.6922
G1 X122.178 Y114.655 E1.70868
G1 X122.524 Y113.625 E1.74277
G1 X122.663 Y113.118 E1.75922
G1 X122.792 Y112.534 E1.77799
G1 X122.98 Y111.244 E1.81887
G1 X123.058 Y111.402 E1.82441
G1 X123.336 Y111.845 E1.8408
G1 X123.732 Y112.271 E1.85905
G1 X124.203 Y112.615 E1.87731
G1 X124.742 Y112.865 E1.89594
G1 X125.348 Y113.011 E1.9155
G1 X125.944 Y113.031 E1.93418
G1 X126.556 Y112.929 E1.95364
G1 X127.1 Y112.721 E1.97191
G1 X127.595 Y112.413 E1.99019
G1 X128.03 Y112.007 E2.00886
G1 X128.022 Y112.219 E2.01552
G1 X127.936 Y112.835 E2.03503
G1 X127.761 Y113.775 E2.06502
G1 X127.54 Y114.7 E2.09483
G1 X127.27 Y115.611 E2.12463
G1 X126.952 Y116.508 E2.15447
G1 X126.619 Y117.315 E2.18185
G1 X126.322 Y117.957 E2.204
G1 X125.882 Y118.803 E2.23393
G1 X125.399 Y119.622 E2.26373
G1 X124.871 Y120.42 E2.29372
G1 X124.505 Y120.923 E2.31323
G1 X123.91 Y121.672 E2.34322
G1 X123.28 Y122.384 E2.37303
G1 X122.61 Y123.066 E2.40302
G1 X122.155 Y123.49 E2.42253
G1 X121.51 Y124.041 E2.4491
G1 X121.537 Y123.703 E2.45974
G1 X121.503 Y123.261 E2.47362
G1 X121.405 Y122.68 E2.49208
G1 X121.163 Y122.077 E2.51248
G1 X120.879 Y121.538 E2.53157
G1 X120.487 Y121.07 E2.55072
G1 X119.975 Y120.639 E2.57171
G1 X119.363 Y120.294 E2.59372
G1 X118.875 Y120.136 E2.60983
G1 X118.409 Y120.027 E2.62481
G1 E1.12481 F2100
G92 E0
G1 X120.755 Y115.47 F7200
G1 X120.84 Y115.298
G1 X120.848 Y115.282
G1 X120.931 Y115.108
G1 X120.939 Y115.092
G1 X121.018 Y114.917
G1 X121.026 Y114.901
G1 X121.102 Y114.724
G1 X121.109 Y114.708
G1 X121.183 Y114.53
G1 X121.19 Y114.513
G1 X121.26 Y114.335
G1 X121.267 Y114.318
G1 X121.334 Y114.138
G1 X121.34 Y114.121
G1 X121.41 Y113.923
G1 X121.477 Y113.723
G1 X121.54 Y113.522
G1 X121.6 Y113.321
G1 X121.656 Y113.118
G1 X121.708 Y112.915
G1 X121.757 Y112.71
G1 X121.803 Y112.505
G1 X121.845 Y112.299
G1 X121.883 Y112.092
G1 X121.918 Y111.885
G1 X121.949 Y111.677
G1 X121.976 Y111.468
G1 X122 Y111.259
G1 X122.02 Y111.05
G1 X122.036 Y110.84
G1 X122.049 Y110.63
G1 X122.058 Y110.42
G1 X122.064 Y110.21
G1 X122.066 Y110
G1 X122.064 Y109.79
G1 X122.058 Y109.58
G1 X122.049 Y109.37
G1 X122.036 Y109.16
G1 X122.02 Y108.95
G1 X122 Y108.741
G1 X121.976 Y108.532
G1 X121.949 Y108.323
G1 X121.918 Y108.115
G1 X121.883 Y107.908
G1 X121.845 Y107.701
G1 X121.803 Y107.495
G1 X121.757 Y107.29
G1 X121.708 Y107.085
G1 X121.656 Y106.882
G1 X121.6 Y106.679
G1 X121.54 Y106.478
G1 X121.477 Y106.277
G1 X121.41 Y106.077
G1 X121.34 Y105.879
G1 X121.334 Y105.862
G1 X121.267 Y105.682
G1 X121.26 Y105.665
G1 X121.19 Y105.487
G1 X121.183 Y105.47
G1 X121.109 Y105.292
G1 X121.102 Y105.276
G1 X121.026 Y105.099
G1 X121.018 Y105.083
G1 X120.939 Y104.908
G1 X120.931 Y104.892
G1 X120.848 Y104.718
G1 X120.84 Y104.702
