; generated by PrusaSlicer 2.5.0+win64 on 2023-02-10 at 17:28:08 UTC

; 

; external perimeters extrusion width = 0.42mm
; perimeters extrusion width = 0.45mm
; infill extrusion width = 0.45mm
; solid infill extrusion width = 0.45mm
; top infill extrusion width = 0.40mm
; first layer extrusion width = 0.42mm

M107
M190 S50 ; set bed temperature and wait for it to be reached
M104 S200 ; set temperature
;TYPE:Custom
G28 ;home all axes
;G29 ;Auto bed levelling
G1 F7200 X110.000 Y110.000
M109 S200 ; set temperature and wait for it to be reached
G21 ; set units to millimeters
G90 ; use absolute coordinates
M82 ; use absolute distances for extrusion
G92 E0
; Filament-specific gcode
M107
;LAYER_CHANGE
;Z:0.2
;HEIGHT:0.2
G1 Z.2 F7200
G1 E-1.5 F2100
G92 E0
G1 X80.759 Y90.421 F7200
G1 E1.5 F2100
M204 P1000
;TYPE:Skirt/Brim
;WIDTH:0.42
G1 F1800
G1 X81.449 Y89.893 E1.52725
G1 X106.638 Y75.336 E2.43945
G1 X107.478 Y74.955 E2.46836
G1 X108.307 Y74.698 E2.49557
G1 X109.23 Y74.536 E2.52495
G1 X110.097 Y74.494 E2.55217
G1 X111.016 Y74.567 E2.58108
G1 X111.866 Y74.742 E2.60829
G1 X112.753 Y75.046 E2.63768
G1 X113.56 Y75.446 E2.66591
G1 X138.278 Y89.719 E3.56088
G1 X139.549 Y90.704 E3.6113
G1 X140.605 Y92.007 E3.66388
G1 X141.046 Y92.818 E3.69282
G1 X141.383 Y93.693 E3.72222
G1 X141.599 Y94.591 E3.75116
G1 X141.701 Y95.577 E3.78226
G1 X141.705 Y124.194 E4.67953
G1 X141.647 Y125.093 E4.70776
G1 X141.485 Y125.945 E4.73497
G1 X141.22 Y126.772 E4.76218
G1 X140.857 Y127.56 E4.78939
G1 X140.401 Y128.298 E4.8166
G1 X139.862 Y128.971 E4.84362
G1 X139.237 Y129.582 E4.87102
G1 X138.547 Y130.109 E4.89823
G1 X113.364 Y144.663 E5.81024
G1 X112.576 Y145.025 E5.83742
G1 X111.698 Y145.301 E5.86627
G1 X110.842 Y145.456 E5.89353
G1 X109.975 Y145.506 E5.92078
G1 X109.041 Y145.441 E5.95012
G1 X108.139 Y145.259 E5.97898
G1 X107.251 Y144.955 E6.00839
G1 X106.442 Y144.555 E6.0367
G1 X81.72 Y130.28 E6.93179
G1 X80.448 Y129.294 E6.98225
G1 X79.43 Y128.047 E7.0327
G1 X78.976 Y127.228 E7.06209
G1 X78.617 Y126.306 E7.0931
G1 X78.4 Y125.407 E7.12209
G1 X78.299 Y124.421 E7.15319
G1 X78.295 Y95.806 E8.05039
G1 X78.353 Y94.911 E8.0785
G1 X78.515 Y94.057 E8.10576
G1 X78.78 Y93.229 E8.13301
G1 X79.141 Y92.444 E8.16012
G1 X79.598 Y91.704 E8.18737
G1 X80.141 Y91.026 E8.21462
G1 X80.716 Y90.463 E8.23983
G1 X80.993 Y90.783 F7200
G1 F1800
G1 X81.658 Y90.208 E8.26742
G1 X106.818 Y75.668 E9.17854
G1 X107.61 Y75.308 E9.20581
G1 X108.395 Y75.064 E9.23158
G1 X109.272 Y74.91 E9.25952
G1 X110.094 Y74.872 E9.2853
G1 X110.961 Y74.94 E9.31257
G1 X111.766 Y75.106 E9.33834
G1 X112.609 Y75.395 E9.36629
G1 X113.371 Y75.772 E9.39296
G1 X138.081 Y90.041 E10.2876
G1 X139.285 Y90.973 E10.33536
G1 X140.287 Y92.21 E10.38527
G1 X140.703 Y92.975 E10.41256
G1 X141.023 Y93.807 E10.44053
G1 X141.227 Y94.653 E10.46782
G1 X141.324 Y95.588 E10.49727
G1 X141.328 Y124.194 E11.39421
G1 X141.273 Y125.043 E11.42088
G1 X141.12 Y125.851 E11.44665
G1 X140.869 Y126.634 E11.47242
G1 X140.525 Y127.38 E11.4982
G1 X139.584 Y128.717 E11.54946
G1 X138.992 Y129.296 E11.57541
G1 X138.339 Y129.795 E11.60119
G1 X113.184 Y144.331 E12.51212
G1 X112.438 Y144.674 E12.53787
G1 X111.61 Y144.934 E12.56508
G1 X110.8 Y145.082 E12.5909
G1 X109.978 Y145.129 E12.61671
G1 X109.09 Y145.067 E12.64462
G1 X108.239 Y144.896 E12.67183
G1 X107.395 Y144.607 E12.6998
G1 X106.631 Y144.229 E12.72654
G1 X81.918 Y129.959 E13.6213
G1 X80.713 Y129.025 E13.66909
G1 X79.711 Y127.786 E13.71905
G1 X79.296 Y127.022 E13.74632
G1 X78.962 Y126.144 E13.77576
G1 X78.761 Y125.276 E13.80371
G1 X78.676 Y124.41 E13.83098
G1 X78.672 Y95.806 E14.72786
G1 X78.726 Y94.96 E14.75441
G1 X78.88 Y94.151 E14.78023
G1 X79.473 Y92.623 E14.83162
G1 X79.905 Y91.923 E14.85743
G1 X80.419 Y91.28 E14.88324
G1 X80.947 Y90.823 E14.90515
G1 X81.182 Y91.065 F7200
G1 F1800
G1 X81.304 Y90.947 E14.91046
G1 X81.924 Y90.483 E14.93475
G1 X106.936 Y76.032 E15.84045
G1 X107.703 Y75.676 E15.86696
G1 X108.482 Y75.431 E15.89259
G1 X109.315 Y75.285 E15.9191
G1 X110.09 Y75.249 E15.94343
G1 X111.665 Y75.469 E15.9933
G1 X112.465 Y75.744 E16.01981
G1 X113.183 Y76.099 E16.04491
G1 X137.883 Y90.362 E16.93923
G1 X139.021 Y91.242 E16.98432
G1 X139.969 Y92.413 E17.03156
G1 X140.36 Y93.132 E17.05721
G1 X140.664 Y93.921 E17.08374
G1 X140.856 Y94.716 E17.10939
G1 X140.947 Y95.598 E17.13719
G1 X140.951 Y124.194 E18.0338
G1 X140.755 Y125.756 E18.08314
G1 X140.194 Y127.2 E18.13172
G1 X139.786 Y127.861 E18.15605
G1 X139.256 Y128.517 E18.1825
G1 X138.072 Y129.519 E18.23114
G1 X113.065 Y143.967 E19.13667
G1 X112.3 Y144.323 E19.16315
G1 X111.562 Y144.558 E19.18743
G1 X109.981 Y144.752 E19.23736
G1 X109.139 Y144.694 E19.26383
G1 X108.34 Y144.532 E19.2894
G1 X107.539 Y144.258 E19.31593
G1 X106.819 Y143.902 E19.3411
G1 X82.115 Y129.637 E20.23553
G1 X80.978 Y128.756 E20.28066
G1 X80.029 Y127.584 E20.32794
G1 X79.639 Y126.865 E20.35357
G1 X79.324 Y126.037 E20.38137
G1 X79.133 Y125.213 E20.40788
G1 X79.053 Y124.4 E20.43351
G1 X79.049 Y95.806 E21.33005
G1 X79.245 Y94.246 E21.37933
G1 X79.804 Y92.803 E21.42786
G1 X80.697 Y91.535 E21.4765
G1 X81.139 Y91.107 E21.49578
; printing object TopPlate.stl id:0 copy 0
G1 E19.99578 F2100
G92 E0
G1 X136.304 Y98.462 F7200
G1 E1.5 F2100
;TYPE:Perimeter
;WIDTH:0.419999
G1 F1800
G1 X136.173 Y98.747 E1.50982
G1 X135.972 Y99.361 E1.53008
G1 X135.868 Y99.984 E1.5499
G1 X135.831 Y100.532 E1.56713
G1 X135.851 Y101.186 E1.58764
G1 X135.942 Y101.725 E1.60477
G1 X136.296 Y103.005 E1.64642
G1 X136.523 Y103.923 E1.67608
G1 X136.717 Y104.842 E1.70551
G1 X136.95 Y106.245 E1.75011
G1 X137.063 Y107.172 E1.77941
G1 X137.174 Y108.591 E1.82401
G1 X137.206 Y109.524 E1.8533
G1 X137.194 Y110.942 E1.89776
G1 X137.106 Y112.381 E1.94294
G1 X137.011 Y113.292 E1.97166
G1 X136.881 Y114.225 E2.00123
G1 X136.718 Y115.154 E2.03078
G1 X136.523 Y116.077 E2.06035
G1 X136.296 Y116.995 E2.09001
G1 X135.919 Y118.38 E2.13502
G1 X135.84 Y118.92 E2.15212
G1 X135.823 Y119.57 E2.17252
G1 X135.899 Y120.298 E2.19545
G1 X135.966 Y120.582 E2.2046
G1 X136.219 Y121.389 E2.23113
G1 X136.567 Y122.077 E2.25531
G1 X137.054 Y122.819 E2.28313
G1 X137.254 Y123.273 E2.29868
G1 X137.373 Y123.754 E2.31423
G1 X137.392 Y124.401 E2.33453
G1 X137.379 Y124.59 E2.34045
G1 X137.254 Y125.091 E2.35665
G1 X137.052 Y125.562 E2.3727
G1 X136.751 Y125.992 E2.38917
G1 X136.371 Y126.376 E2.4061
G1 X135.856 Y126.712 E2.42538
G1 X135.408 Y126.894 E2.44055
G1 X134.927 Y126.998 E2.45598
G1 X134.245 Y127.006 E2.47736
G1 X133.629 Y126.97 E2.49671
G1 X132.819 Y127.034 E2.52219
G1 X132.107 Y127.2 E2.54512
G1 X131.808 Y127.313 E2.55514
G1 X131.054 Y127.658 E2.58112
G1 X130.625 Y127.933 E2.59712
G1 X130.137 Y128.329 E2.6168
G1 X129.206 Y129.276 E2.65845
G1 X128.524 Y129.932 E2.68811
G1 X127.823 Y130.561 E2.71767
G1 X127.1 Y131.167 E2.74723
G1 X126.356 Y131.746 E2.77679
G1 X125.596 Y132.297 E2.80622
G1 X124.413 Y133.08 E2.85069
G1 X123.191 Y133.799 E2.89516
G1 X122.363 Y134.24 E2.92459
G1 X121.519 Y134.652 E2.95401
G1 X120.215 Y135.22 E2.99861
G1 X119.343 Y135.556 E3.02791
G1 X117.995 Y136.009 E3.07251
G1 X115.642 Y136.662 E3.14907
G1 X114.777 Y137.056 E3.17889
G1 X114.106 Y137.512 E3.20432
G1 X113.731 Y137.874 E3.22064
G1 X113.311 Y138.325 E3.23998
G1 X112.939 Y138.848 E3.26011
G1 X112.958 Y138.233 E3.27939
G1 X112.874 Y137.663 E3.29745
G1 X112.667 Y137.089 E3.31659
G1 X112.373 Y136.603 E3.3344
G1 X111.972 Y136.168 E3.35294
G1 X111.501 Y135.825 E3.37121
G1 X111.049 Y135.604 E3.387
G1 X110.568 Y135.466 E3.4027
G1 X109.993 Y135.411 E3.42078
G1 X109.474 Y135.461 E3.43715
G1 X108.927 Y135.615 E3.45497
G1 X108.665 Y135.739 E3.46406
G1 X108.228 Y136.002 E3.48004
G1 X107.844 Y136.342 E3.49612
G1 X107.523 Y136.749 E3.51238
G1 X107.269 Y137.23 E3.52943
G1 X107.101 Y137.772 E3.54722
G1 X107.039 Y138.339 E3.56511
G1 X107.082 Y138.903 E3.58283
G1 X106.773 Y138.426 E3.60063
G1 X106.345 Y137.926 E3.62128
G1 X105.88 Y137.526 E3.64051
G1 X105.387 Y137.161 E3.65972
G1 X104.708 Y136.795 E3.68393
G1 X104.195 Y136.604 E3.70107
G1 X102.91 Y136.271 E3.74272
G1 X102.005 Y136.009 E3.77225
G1 X100.657 Y135.556 E3.81685
G1 X99.781 Y135.219 E3.84628
G1 X98.917 Y134.851 E3.87571
G1 X97.634 Y134.238 E3.92031
G1 X96.809 Y133.799 E3.9496
G1 X95.587 Y133.08 E3.99406
G1 X94.385 Y132.284 E4.03924
G1 X93.644 Y131.746 E4.06796
G1 X92.9 Y131.167 E4.09753
G1 X92.177 Y130.561 E4.12709
G1 X91.476 Y129.932 E4.15664
G1 X89.744 Y128.227 E4.23285
G1 X89.111 Y127.767 E4.25738
G1 X88.67 Y127.523 E4.27317
G1 X88.063 Y127.256 E4.29396
G1 X87.197 Y127.037 E4.32199
G1 X86.323 Y126.969 E4.34946
G1 X85.525 Y127.021 E4.37455
G1 X85.01 Y126.983 E4.39074
G1 X84.459 Y126.85 E4.4085
G1 X84.003 Y126.636 E4.4243
G1 X83.488 Y126.238 E4.44472
G1 X83.156 Y125.867 E4.46033
G1 X82.803 Y125.253 E4.48251
G1 X82.646 Y124.727 E4.49973
G1 X82.595 Y124.242 E4.51503
G1 X82.629 Y123.743 E4.53071
G1 X82.791 Y123.166 E4.54948
G1 X83.02 Y122.69 E4.56607
G1 X83.353 Y122.2 E4.58463
G1 X83.769 Y121.419 E4.61239
G1 X84.028 Y120.64 E4.63812
G1 X84.171 Y119.604 E4.67092
G1 X84.149 Y118.814 E4.69569
G1 X84.058 Y118.275 E4.71283
G1 X83.704 Y116.995 E4.75447
G1 X83.477 Y116.077 E4.78413
G1 X83.283 Y115.158 E4.81356
G1 X83.05 Y113.755 E4.85815
G1 X82.935 Y112.805 E4.88816
G1 X82.826 Y111.41 E4.93205
G1 X82.794 Y110.476 E4.96135
G1 X82.806 Y109.058 E5.00581
G1 X82.894 Y107.619 E5.05099
G1 X82.989 Y106.708 E5.07971
G1 X83.119 Y105.775 E5.10928
G1 X83.282 Y104.846 E5.13884
G1 X83.477 Y103.923 E5.1684
G1 X83.704 Y103.005 E5.19806
G1 X84.081 Y101.62 E5.24308
G1 X84.16 Y101.08 E5.26017
G1 X84.182 Y100.569 E5.27622
G1 X84.134 Y100.051 E5.29254
G1 X84.045 Y99.434 E5.31206
G1 X83.781 Y98.611 E5.33916
G1 X83.51 Y98.064 E5.3583
G1 X83.89 Y98.344 E5.3731
G1 X84.401 Y98.591 E5.3909
G1 X84.959 Y98.736 E5.40895
G1 X85.568 Y98.77 E5.4281
G1 X86.138 Y98.687 E5.44614
G1 X86.71 Y98.481 E5.4652
G1 X87.198 Y98.185 E5.48311
G1 X87.624 Y97.797 E5.50117
G1 X87.985 Y97.304 E5.52031
G1 X88.222 Y96.789 E5.53812
G1 X88.357 Y96.237 E5.55591
G1 X88.383 Y95.662 E5.57397
G1 X88.29 Y95.059 E5.59312
G1 X88.092 Y94.523 E5.61103
G1 X87.766 Y94.002 E5.63029
G1 X87.418 Y93.621 E5.6465
G1 X86.963 Y93.281 E5.6643
;WIDTH:0.423118
G1 X86.453 Y93.03 E5.68226
G1 X86.638 Y93.013 E5.68813
;WIDTH:0.419999
G1 X87.181 Y92.966 E5.70523
G1 X87.893 Y92.8 E5.72816
G1 X88.441 Y92.579 E5.74669
G1 X89.016 Y92.297 E5.76677
G1 X89.438 Y92.022 E5.78255
G1 X89.863 Y91.671 E5.79982
G1 X90.794 Y90.724 E5.84146
G1 X91.476 Y90.068 E5.87113
G1 X92.177 Y89.439 E5.90069
G1 X92.9 Y88.833 E5.93025
G1 X93.644 Y88.254 E5.95981
G1 X94.385 Y87.716 E5.98853
G1 X95.587 Y86.92 E6.03371
G1 X96.809 Y86.201 E6.07817
G1 X97.637 Y85.76 E6.10759
G1 X98.501 Y85.339 E6.13773
G1 X99.784 Y84.78 E6.18162
G1 X100.657 Y84.444 E6.21093
G1 X102.005 Y83.991 E6.25552
G1 X104.308 Y83.359 E6.33042
G1 X104.772 Y83.157 E6.34628
G1 X105.272 Y82.911 E6.36375
G1 X105.962 Y82.427 E6.39019
G1 X106.668 Y81.704 E6.42185
G1 X107.101 Y81.082 E6.44562
G1 X107.494 Y80.299 E6.47308
G1 X107.818 Y79.828 E6.49102
G1 X108.216 Y79.424 E6.50878
G1 X108.631 Y79.146 E6.52446
G1 X109.081 Y78.946 E6.53989
G1 X109.558 Y78.827 E6.55532
G1 X110.049 Y78.793 E6.57075
G1 X110.752 Y78.903 E6.59306
G1 X111.412 Y79.17 E6.61537
G1 X111.822 Y79.456 E6.63105
G1 X112.202 Y79.852 E6.64824
G1 X112.512 Y80.358 E6.66686
G1 X112.999 Y81.231 E6.6982
G1 X113.464 Y81.864 E6.72282
G1 X114.038 Y82.427 E6.74803
G1 X114.388 Y82.681 E6.76161
G1 X114.935 Y83.03 E6.78193
G1 X115.871 Y83.418 E6.81372
G1 X117.547 Y83.857 E6.86803
G1 X118.899 Y84.286 E6.91252
G1 X119.781 Y84.608 E6.94195
G1 X120.655 Y84.962 E6.97151
G1 X121.512 Y85.344 E7.00093
G1 X122.784 Y85.98 E7.04553
G1 X123.602 Y86.433 E7.07483
G1 X124.811 Y87.174 E7.1193
G1 X125.98 Y87.976 E7.16377
G1 X126.73 Y88.54 E7.19319
G1 X127.464 Y89.133 E7.22276
G1 X128.176 Y89.75 E7.25232
G1 X128.865 Y90.39 E7.28179
G1 X130.141 Y91.675 E7.33855
G1 X130.548 Y91.985 E7.35462
G1 X131.121 Y92.379 E7.37641
G1 X131.794 Y92.693 E7.39971
G1 X132.317 Y92.847 E7.41678
G1 X132.803 Y92.963 E7.43248
G1 X133.532 Y93.029 E7.45541
G1 X133.327 Y93.127 E7.46255
G1 X132.764 Y93.472 E7.48324
G1 X132.382 Y93.821 E7.49948
G1 X132.038 Y94.283 E7.51751
G1 X131.779 Y94.833 E7.53657
G1 X131.643 Y95.388 E7.55448
G1 X131.617 Y95.963 E7.57254
G1 X131.71 Y96.566 E7.59168
G1 X131.906 Y97.099 E7.60949
G1 X132.201 Y97.584 E7.62729
G1 X132.582 Y98.004 E7.64508
G1 X133.045 Y98.348 E7.66314
G1 X133.497 Y98.574 E7.67899
G1 X133.99 Y98.717 E7.69508
G1 X134.535 Y98.774 E7.71227
G1 X135.101 Y98.727 E7.73007
G1 X135.684 Y98.557 E7.74911
G1 X136.162 Y98.309 E7.766
G1 X136.514 Y98.041 E7.77987
G1 X136.329 Y98.407 E7.79274
G1 X136.638 Y98.621 F7200
;WIDTH:0.465164
G1 F1800
G1 X136.529 Y98.872 E7.80234
;WIDTH:0.419999
G1 X136.344 Y99.423 E7.82056
G1 X136.24 Y100.046 E7.84038
G1 X136.208 Y100.526 E7.85545
G1 X136.224 Y101.128 E7.87433
G1 X136.305 Y101.624 E7.89012
G1 X136.661 Y102.909 E7.93192
G1 X136.891 Y103.839 E7.96195
G1 X137.088 Y104.772 E7.99185
G1 X137.324 Y106.191 E8.03696
G1 X137.439 Y107.135 E8.06676
G1 X137.551 Y108.569 E8.11188
G1 X137.584 Y109.519 E8.14168
G1 X137.571 Y110.956 E8.18671
G1 X137.482 Y112.412 E8.23246
G1 X137.385 Y113.337 E8.26164
G1 X137.253 Y114.284 E8.29161
G1 X137.088 Y115.226 E8.32158
G1 X136.891 Y116.161 E8.35155
G1 X136.661 Y117.091 E8.38158
G1 X136.292 Y118.439 E8.42541
G1 X136.217 Y118.936 E8.44118
G1 X136.206 Y119.606 E8.4622
G1 X136.328 Y120.475 E8.4897
G1 X136.557 Y121.222 E8.51419
G1 X136.883 Y121.87 E8.53694
G1 X137.386 Y122.638 E8.56573
G1 X137.612 Y123.151 E8.5833
G1 X137.746 Y123.694 E8.60085
G1 X137.768 Y124.428 E8.62388
G1 X137.753 Y124.641 E8.63056
G1 X137.612 Y125.211 E8.64898
G1 X137.382 Y125.745 E8.66719
G1 X137.042 Y126.232 E8.68582
G1 X136.605 Y126.674 E8.70532
G1 X136.032 Y127.047 E8.72676
G1 X135.52 Y127.256 E8.7441
G1 X134.974 Y127.373 E8.76159
G1 X134.218 Y127.382 E8.78531
G1 X133.653 Y127.346 E8.80306
G1 X132.904 Y127.402 E8.82659
G1 X132.192 Y127.567 E8.84952
G1 X131.284 Y127.959 E8.88055
G1 X130.859 Y128.228 E8.89631
G1 X130.406 Y128.593 E8.91454
G1 X129.471 Y129.544 E8.95635
G1 X128.781 Y130.208 E8.98638
G1 X128.07 Y130.846 E9.01635
G1 X127.337 Y131.46 E9.04632
G1 X126.583 Y132.048 E9.07629
G1 X125.811 Y132.607 E9.10618
G1 X124.613 Y133.399 E9.15121
G1 X123.376 Y134.128 E9.19624
G1 X122.534 Y134.576 E9.22613
G1 X121.678 Y134.994 E9.25602
G1 X120.359 Y135.569 E9.30113
G1 X119.471 Y135.911 E9.33094
G1 X118.108 Y136.369 E9.37605
G1 X115.793 Y137.008 E9.45133
G1 X114.988 Y137.369 E9.47901
G1 X114.381 Y137.778 E9.50194
G1 X113.995 Y138.143 E9.5186
G1 X113.617 Y138.545 E9.53589
G1 X113.259 Y139.046 E9.55523
;WIDTH:0.464644
G1 X113.157 Y139.197 E9.56161
;WIDTH:0.509288
G1 X113.056 Y139.348 E9.56867
;WIDTH:0.553932
G1 X112.954 Y139.499 E9.5764
G1 X112.652 Y140.067 E9.60371
;WIDTH:0.54331
G1 X112.328 Y140.492 E9.62594
;WIDTH:0.547142
G1 X111.963 Y140.833 E9.64693
;WIDTH:0.547355
G1 X111.52 Y141.131 E9.6693
G1 X111.054 Y141.339 E9.6907
;WIDTH:0.547011
G1 X110.523 Y141.477 E9.7137
;WIDTH:0.546124
G1 X109.937 Y141.519 E9.73826
;WIDTH:0.542647
G1 X109.304 Y141.439 E9.76479
;WIDTH:0.54051
G1 X108.739 Y141.25 E9.78943
;WIDTH:0.53862
G1 X108.275 Y140.999 E9.81118
;WIDTH:0.539924
G1 X107.832 Y140.652 E9.83443
;WIDTH:0.542511
G1 X107.484 Y140.262 E9.85617
;WIDTH:0.548911
G1 X107.219 Y139.848 E9.87681
;WIDTH:0.557705
G1 X107.009 Y139.392 E9.8983
G1 X106.924 Y139.295 E9.90382
;WIDTH:0.511803
G1 X106.84 Y139.198 E9.90885
;WIDTH:0.465901
G1 X106.755 Y139.1 E9.91339
;WIDTH:0.419999
G1 X106.487 Y138.672 E9.92924
G1 X106.058 Y138.172 E9.94988
G1 X105.64 Y137.817 E9.96707
G1 X105.204 Y137.491 E9.98414
G1 X104.572 Y137.146 E10.00672
G1 X104.101 Y136.969 E10.02251
G1 X102.81 Y136.634 E10.06431
G1 X101.892 Y136.369 E10.09427
G1 X100.529 Y135.911 E10.13937
G1 X99.639 Y135.568 E10.16927
G1 X98.762 Y135.195 E10.19916
G1 X97.464 Y134.575 E10.24427
G1 X96.624 Y134.128 E10.27407
G1 X95.387 Y133.4 E10.3191
G1 X94.17 Y132.594 E10.36485
G1 X93.417 Y132.048 E10.39403
G1 X92.663 Y131.46 E10.424
G1 X91.93 Y130.846 E10.45397
G1 X91.219 Y130.208 E10.48393
G1 X90.529 Y129.544 E10.51397
G1 X89.523 Y128.532 E10.55871
G1 X88.889 Y128.073 E10.58324
