; generated by PrusaSlicer 2.4.2+win64 on 2022-08-09 at 13:52:47 UTC
; Postprocessed by [ArcWelder](https://github.com/FormerLurker/ArcWelderLib)
; Copyright(C) 2021 - Brad Hochgesang
; Version: 1.2.0, Branch: HEAD, BuildDate: 2021-11-21T20:25:43Z
; resolution=0.05mm
; path_tolerance=5.0%
; max_radius=9999.00mm
; default_xyz_precision=3
; default_e_precision=5
; extrusion_rate_variance_percent=5.0%


; 

; external perimeters extrusion width = 0.41mm
; perimeters extrusion width = 0.40mm
; infill extrusion width = 0.42mm
; solid infill extrusion width = 0.40mm
; top infill extrusion width = 0.40mm
; first layer extrusion width = 0.40mm

M107
M190 S40 ; set bed temperature and wait for it to be reached
M104 S235 ; set temperature
;TYPE:Custom
G28 ;home all axes
;G29 ;Auto bed levelling
G1 F7200 X110.000 Y110.000
M109 S235 ; set temperature and wait for it to be reached
G21 ; set units to millimeters
G90 ; use absolute coordinates
M82 ; use absolute distances for extrusion
G92 E0
M900 K0
M107
;LAYER_CHANGE
;Z:0.2
;HEIGHT:0.2
G1 Z.2 F7200
G1 X5 Y91.68
M204 P1000
;TYPE:Skirt/Brim
;WIDTH:0.4
G1 F900
G1 X215 Y91.68 E7.17045
G1 X216.406 Y92.072 E7.2203
G1 X217.405 Y93.137 E7.27014
G1 X217.714 Y94.394 E7.31435
G1 X217.714 Y124.394 E8.3387
G1 X217.322 Y125.8 E8.38855
G1 X216.257 Y126.799 E8.43839
G1 X215 Y127.108 E8.4826
G1 X5 Y127.108 E15.65305
G1 X3.594 Y126.715 E15.70289
G1 X2.595 Y125.651 E15.75274
G1 X2.286 Y124.394 E15.79695
G1 X2.286 Y94.394 E16.8213
G1 X2.678 Y92.988 E16.87114
G1 X3.743 Y91.988 E16.92099
G1 X4.942 Y91.694 E16.96315
G1 X5 Y92.037 F7200
G1 F900
G1 X215 Y92.037 E24.1336
G1 X216.301 Y92.428 E24.17998
G1 X217.17 Y93.473 E24.22637
G1 X217.357 Y94.394 E24.25847
G1 X217.357 Y124.394 E25.28281
G1 X216.966 Y125.695 E25.3292
G1 X215.921 Y126.563 E25.37559
G1 X215 Y126.751 E25.40769
G1 X5 Y126.751 E32.57813
G1 X3.699 Y126.359 E32.62452
G1 X2.83 Y125.315 E32.67091
G1 X2.643 Y124.394 E32.703
G1 X2.643 Y94.394 E33.72735
G1 X3.034 Y93.093 E33.77374
G1 X4.079 Y92.224 E33.82013
G1 X4.941 Y92.049 E33.85017
; printing object Elastic-Honeycomb-30x210.stl id:0 copy 0
G92 E0
G1 X109.88 Y96.238 F7200
;TYPE:Perimeter
G1 F600
G1 X109.343 Y95.308 E.03669
G1 X112.547 Y95.308 E.14611
G1 X112.01 Y96.238 E.1828
G1 X109.94 Y96.238 E.25348
G92 E0
G1 X104.531 Y96.238 F7200
G1 F600
G1 X102.401 Y96.238 E.07273
G1 X101.864 Y95.308 E.10942
G1 X105.069 Y95.308 E.21884
G1 X104.561 Y96.187 E.25348
G92 E0
G1 X97.053 Y96.238 F7200
G1 F600
G1 X94.923 Y96.238 E.07273
G1 X94.386 Y95.308 E.10942
G1 X97.59 Y95.308 E.21884
G1 X97.083 Y96.187 E.25348
G92 E0
G1 X89.575 Y96.238 F7200
G1 F600
G1 X87.444 Y96.238 E.07273
G1 X86.907 Y95.308 E.10942
G1 X90.112 Y95.308 E.21884
G1 X89.605 Y96.187 E.25348
G92 E0
G1 X82.096 Y96.238 F7200
G1 F600
G1 X79.966 Y96.238 E.07273
G1 X79.429 Y95.308 E.10942
G1 X82.633 Y95.308 E.21884
G1 X82.126 Y96.187 E.25348
G92 E0
G1 X74.618 Y96.238 F7200
G1 F600
G1 X72.488 Y96.238 E.07273
G1 X71.95 Y95.308 E.10942
G1 X75.155 Y95.308 E.21884
G1 X74.648 Y96.187 E.25348
G92 E0
G1 X67.139 Y96.238 F7200
G1 F600
G1 X65.009 Y96.238 E.07273
G1 X64.472 Y95.308 E.10942
G1 X67.676 Y95.308 E.21884
G1 X67.169 Y96.187 E.25348
G92 E0
G1 X59.661 Y96.238 F7200
G1 F600
G1 X57.531 Y96.238 E.07273
G1 X56.993 Y95.308 E.10942
G1 X60.198 Y95.308 E.21884
G1 X59.691 Y96.187 E.25348
G92 E0
G1 X52.207 Y96.196 F7200
G1 F600
G1 X52.182 Y96.238 E.00169
G1 X50.052 Y96.238 E.07442
G1 X49.515 Y95.308 E.11111
G1 X52.719 Y95.308 E.22053
G1 X52.237 Y96.144 E.25348
G92 E0
G1 X44.729 Y96.196 F7200
G1 F600
G1 X44.704 Y96.238 E.00169
G1 X42.574 Y96.238 E.07442
G1 X42.036 Y95.308 E.11111
G1 X45.241 Y95.308 E.22053
G1 X44.759 Y96.144 E.25348
G92 E0
G1 X37.225 Y96.238 F7200
G1 F600
G1 X35.095 Y96.238 E.07273
G1 X34.558 Y95.308 E.10942
G1 X37.762 Y95.308 E.21884
G1 X37.255 Y96.187 E.25348
G92 E0
G1 X29.747 Y96.238 F7200
G1 F600
G1 X27.617 Y96.238 E.07273
G1 X27.08 Y95.308 E.10942
G1 X30.284 Y95.308 E.21884
G1 X29.777 Y96.187 E.25348
G92 E0
G1 X20.114 Y96.196 F7200
G1 F600
G1 X19.601 Y95.308 E.035
G1 X22.806 Y95.308 E.14441
G1 X22.268 Y96.238 E.1811
G1 X20.149 Y96.238 E.25348
G1 X19.932 Y96.596 F7200
G1 F750
G1 X22.475 Y96.596 E.34029
G1 X22.913 Y95.837 E.37021
G1 X26.972 Y95.837 E.50883
G1 X27.411 Y96.596 E.53875
G1 X29.953 Y96.596 E.62556
G1 X30.391 Y95.837 E.65548
G1 X34.451 Y95.837 E.7941
G1 X34.889 Y96.596 E.82402
G1 X37.431 Y96.596 E.91083
G1 X37.87 Y95.837 E.94075
G1 X41.929 Y95.837 E1.07937
G1 X42.368 Y96.596 E1.10929
G1 X44.91 Y96.596 E1.1961
G1 X45.348 Y95.837 E1.22602
G1 X49.408 Y95.837 E1.36464
G1 X49.846 Y96.596 E1.39456
G1 X52.388 Y96.596 E1.48137
G1 X52.826 Y95.837 E1.51129
G1 X56.886 Y95.837 E1.64991
G1 X57.324 Y96.596 E1.67983
G1 X59.867 Y96.596 E1.76664
G1 X60.305 Y95.837 E1.79656
G1 X64.365 Y95.837 E1.93519
G1 X64.803 Y96.596 E1.96511
G1 X67.345 Y96.596 E2.05192
G1 X67.783 Y95.837 E2.08183
G1 X71.843 Y95.837 E2.22046
G1 X72.281 Y96.596 E2.25038
G1 X74.824 Y96.596 E2.33719
G1 X75.262 Y95.837 E2.36711
G1 X79.322 Y95.837 E2.50573
G1 X79.76 Y96.596 E2.53565
G1 X82.302 Y96.596 E2.62246
G1 X82.74 Y95.837 E2.65238
G1 X86.8 Y95.837 E2.791
G1 X87.238 Y96.596 E2.82092
G1 X89.781 Y96.596 E2.90773
G1 X90.219 Y95.837 E2.93765
G1 X94.279 Y95.837 E3.07627
G1 X94.717 Y96.596 E3.10619
G1 X97.259 Y96.596 E3.193
G1 X97.697 Y95.837 E3.22292
G1 X101.757 Y95.837 E3.36154
G1 X102.195 Y96.596 E3.39146
G1 X104.738 Y96.596 E3.47827
G1 X105.176 Y95.837 E3.50819
G1 X109.236 Y95.837 E3.64681
G1 X109.674 Y96.596 E3.67673
G1 X112.216 Y96.596 E3.76354
G1 X112.654 Y95.837 E3.79346
G1 X116.714 Y95.837 E3.93208
G1 X117.152 Y96.596 E3.962
G1 X119.695 Y96.596 E4.04881
G1 X120.133 Y95.837 E4.07873
G1 X124.192 Y95.837 E4.21735
G1 X124.631 Y96.596 E4.24727
G1 X127.173 Y96.596 E4.33408
G1 X127.611 Y95.837 E4.364
G1 X131.671 Y95.837 E4.50263
G1 X132.109 Y96.596 E4.53255
G1 X134.651 Y96.596 E4.61935
G1 X135.09 Y95.837 E4.64927
G1 X139.149 Y95.837 E4.7879
G1 X139.588 Y96.596 E4.81782
G1 X142.13 Y96.596 E4.90463
G1 X142.568 Y95.837 E4.93454
G1 X146.628 Y95.837 E5.07317
G1 X147.066 Y96.596 E5.10309
G1 X149.608 Y96.596 E5.1899
G1 X150.046 Y95.837 E5.21982
G1 X154.106 Y95.837 E5.35844
G1 X154.544 Y96.596 E5.38836
G1 X157.087 Y96.596 E5.47517
G1 X157.525 Y95.837 E5.50509
G1 X161.585 Y95.837 E5.64371
G1 X162.023 Y96.596 E5.67363
G1 X164.565 Y96.596 E5.76044
G1 X165.003 Y95.837 E5.79036
G1 X169.063 Y95.837 E5.92898
G1 X169.501 Y96.596 E5.9589
G1 X172.044 Y96.596 E6.04571
G1 X172.482 Y95.837 E6.07563
G1 X176.542 Y95.837 E6.21425
G1 X176.98 Y96.596 E6.24417
G1 X179.522 Y96.596 E6.33098
G1 X179.96 Y95.837 E6.3609
G1 X184.02 Y95.837 E6.49952
G1 X184.458 Y96.596 E6.52944
G1 X187.001 Y96.596 E6.61625
G1 X187.439 Y95.837 E6.64617
G1 X191.499 Y95.837 E6.78479
G1 X191.937 Y96.596 E6.81471
G1 X194.479 Y96.596 E6.90152
G1 X194.917 Y95.837 E6.93144
G1 X198.977 Y95.837 E7.07007
G1 X199.415 Y96.596 E7.09999
G1 X201.958 Y96.596 E7.1868
G1 X202.396 Y95.837 E7.21671
G1 X206.456 Y95.837 E7.35534
G1 X206.894 Y96.596 E7.38526
G1 X209.436 Y96.596 E7.47207
G1 X209.874 Y95.837 E7.50199
G1 X213.557 Y95.837 E7.62774
G1 X213.557 Y97.921 E7.69892
G1 X213.101 Y98.711 E7.73007
G1 X213.557 Y99.502 E7.76122
G1 X213.557 Y102.239 E7.85469
G1 X213.101 Y103.029 E7.88584
G1 X213.557 Y103.819 E7.91699
G1 X213.557 Y106.557 E8.01047
G1 X213.101 Y107.347 E8.04162
G1 X213.557 Y108.137 E8.07277
G1 X213.557 Y110.874 E8.16624
G1 X213.101 Y111.665 E8.19739
G1 X213.557 Y112.455 E8.22854
G1 X213.557 Y115.192 E8.32201
G1 X213.101 Y115.982 E8.35316
G1 X213.557 Y116.772 E8.38431
G1 X213.557 Y119.51 E8.47779
G1 X213.101 Y120.3 E8.50894
G1 X213.557 Y121.09 E8.54009
G1 X213.557 Y122.951 E8.60363
G1 X209.177 Y122.951 E8.75319
G1 X209.486 Y122.416 E8.77429
G1 X206.844 Y122.416 E8.86448
G1 X207.153 Y122.951 E8.88558
G1 X201.698 Y122.951 E9.07183
G1 X202.007 Y122.416 E9.09292
G1 X199.366 Y122.416 E9.18311
G1 X199.675 Y122.951 E9.20421
G1 X194.22 Y122.951 E9.39046
G1 X194.529 Y122.416 E9.41155
G1 X191.887 Y122.416 E9.50175
G1 X192.196 Y122.951 E9.52284
G1 X186.741 Y122.951 E9.70909
G1 X187.05 Y122.416 E9.73019
G1 X184.409 Y122.416 E9.82038
G1 X184.718 Y122.951 E9.84148
G1 X179.263 Y122.951 E10.02773
G1 X179.572 Y122.416 E10.04882
G1 X176.93 Y122.416 E10.13902
G1 X177.239 Y122.951 E10.16011
G1 X171.784 Y122.951 E10.34636
G1 X172.093 Y122.416 E10.36745
G1 X169.452 Y122.416 E10.45765
G1 X169.761 Y122.951 E10.47874
G1 X164.306 Y122.951 E10.66499
G1 X164.615 Y122.416 E10.68609
G1 X161.973 Y122.416 E10.77628
G1 X162.282 Y122.951 E10.79738
G1 X156.828 Y122.951 E10.98363
G1 X157.136 Y122.416 E11.00472
G1 X154.495 Y122.416 E11.09492
G1 X154.804 Y122.951 E11.11601
G1 X149.349 Y122.951 E11.30226
G1 X149.658 Y122.416 E11.32335
G1 X147.016 Y122.416 E11.41355
G1 X147.325 Y122.951 E11.43464
G1 X141.871 Y122.951 E11.62089
G1 X142.179 Y122.416 E11.64199
G1 X139.538 Y122.416 E11.73218
G1 X139.847 Y122.951 E11.75328
G1 X134.392 Y122.951 E11.93953
G1 X134.701 Y122.416 E11.96062
G1 X132.059 Y122.416 E12.05082
G1 X132.368 Y122.951 E12.07191
G1 X126.914 Y122.951 E12.25816
G1 X127.223 Y122.416 E12.27926
G1 X124.581 Y122.416 E12.36945
G1 X124.89 Y122.951 E12.39054
G1 X119.435 Y122.951 E12.57679
G1 X119.744 Y122.416 E12.59789
G1 X117.103 Y122.416 E12.68808
G1 X117.411 Y122.951 E12.70918
G1 X111.957 Y122.951 E12.89543
G1 X112.266 Y122.416 E12.91652
G1 X109.624 Y122.416 E13.00672
G1 X109.933 Y122.951 E13.02781
G1 X104.478 Y122.951 E13.21406
G1 X104.787 Y122.416 E13.23516
G1 X102.146 Y122.416 E13.32535
G1 X102.455 Y122.951 E13.34644
G1 X97 Y122.951 E13.53269
G1 X97.309 Y122.416 E13.55379
G1 X94.667 Y122.416 E13.64398
G1 X94.976 Y122.951 E13.66508
G1 X89.521 Y122.951 E13.85133
G1 X89.83 Y122.416 E13.87242
G1 X87.189 Y122.416 E13.96262
G1 X87.498 Y122.951 E13.98371
G1 X82.043 Y122.951 E14.16996
G1 X82.352 Y122.416 E14.19106
G1 X79.71 Y122.416 E14.28125
G1 X80.019 Y122.951 E14.30234
G1 X74.564 Y122.951 E14.4886
G1 X74.873 Y122.416 E14.50969
G1 X72.232 Y122.416 E14.59988
G1 X72.541 Y122.951 E14.62098
G1 X67.086 Y122.951 E14.80723
G1 X67.395 Y122.416 E14.82832
G1 X64.753 Y122.416 E14.91852
G1 X65.062 Y122.951 E14.93961
G1 X59.608 Y122.951 E15.12586
G1 X59.916 Y122.416 E15.14696
G1 X57.275 Y122.416 E15.23715
G1 X57.584 Y122.951 E15.25824
G1 X52.129 Y122.951 E15.4445
G1 X52.438 Y122.416 E15.46559
G1 X49.796 Y122.416 E15.55578
G1 X50.105 Y122.951 E15.57688
G1 X44.651 Y122.951 E15.76313
G1 X44.959 Y122.416 E15.78422
G1 X42.318 Y122.416 E15.87442
G1 X42.627 Y122.951 E15.89551
G1 X37.172 Y122.951 E16.08176
G1 X37.481 Y122.416 E16.10286
G1 X34.84 Y122.416 E16.19305
G1 X35.148 Y122.951 E16.21414
G1 X29.694 Y122.951 E16.4004
G1 X30.003 Y122.416 E16.42149
G1 X27.361 Y122.416 E16.51168
G1 X27.67 Y122.951 E16.53278
G1 X22.215 Y122.951 E16.71903
G1 X22.524 Y122.416 E16.74012
G1 X19.883 Y122.416 E16.83032
G1 X20.191 Y122.951 E16.85141
G1 X16.443 Y122.951 E16.97941
G1 X16.443 Y95.837 E17.90522
G1 X19.494 Y95.837 E18.0094
G1 X19.902 Y96.544 E18.03727
G92 E0
G1 X20.034 Y96.686 F7200
G1 X20.571 Y96.617
G1 X21.836 Y96.617
G1 X22.372 Y96.686
G1 X23.773 Y98.578
G1 X26.112 Y98.578
G1 X27.513 Y96.686
G1 X28.05 Y96.617
G1 X29.314 Y96.617
G1 X29.851 Y96.686
G1 X31.252 Y98.578
G1 X33.59 Y98.845
G1 X34.991 Y100.737
G1 X37.329 Y100.737
G1 X38.73 Y98.845
G1 X41.069 Y98.845
G1 X42.47 Y100.737
G1 X45.04 Y100.87
G1 X46.209 Y102.895
G1 X48.547 Y102.895
G1 X49.948 Y101.004
G1 X52.286 Y101.004
G1 X53.687 Y102.895
G1 X56.257 Y103.029
G1 X57.426 Y105.054
G1 X59.765 Y105.054
G1 X61.166 Y103.163
G1 X63.504 Y103.163
G1 X64.905 Y105.054
G1 X67.243 Y105.054
G1 X68.644 Y103.163
G1 X70.982 Y103.163
G1 X72.383 Y105.322
G1 X74.722 Y105.322
G1 X76.123 Y107.213
G1 X78.461 Y107.213
G1 X79.862 Y105.322
G1 X82.2 Y105.322
G1 X83.355 Y107.323
G1 X85.939 Y107.481
G1 X87.34 Y109.372
G1 X89.679 Y109.372
G1 X91.08 Y107.481
G1 X93.418 Y107.481
G1 X94.819 Y109.372
G1 X97.157 Y109.64
G1 X98.558 Y111.531
G1 X100.896 Y111.531
G1 X102.297 Y109.64
G1 X104.636 Y109.64
G1 X106.036 Y111.531
G1 X108.126 Y111.531
G1 X108.683 Y111.798
G1 X108.914 Y111.665
;TYPE:External perimeter
G1 F600
G1 X109.929 Y109.906 E.06935
G1 X111.96 Y109.906 E.13869
G1 X112.976 Y111.665 E.20804
G1 X111.96 Y113.423 E.27739
G1 X109.929 Y113.423 E.34673
G1 X108.944 Y111.717 E.41403
G1 X108.568 Y111.465 F7200
G1 X108.221 Y112.065
G1 F600
G1 X109.237 Y113.823 E.48338
G1 X108.221 Y115.582 E.55272
G1 X106.19 Y115.582 E.62207
G1 X105.175 Y113.823 E.69142
G1 X106.19 Y112.065 E.76076
G1 X108.161 Y112.065 E.82806
G1 X108.568 Y111.865 F7200
G92 E0
G1 X109.929 Y114.223
G1 F600
G1 X111.96 Y114.223 E.06935
G1 X112.976 Y115.982 E.13869
G1 X111.96 Y117.741 E.20804
G1 X109.929 Y117.741 E.27739
G1 X108.914 Y115.982 E.34673
G1 X109.899 Y114.275 E.41403
G1 X109.929 Y113.823 F7200
G92 E0
G1 X108.221 Y116.382
G1 F600
G1 X109.237 Y118.141 E.06935
G1 X108.221 Y119.9 E.13869
G1 X106.19 Y119.9 E.20804
G1 X105.175 Y118.141 E.27739
G1 X106.19 Y116.382 E.34673
G1 X108.161 Y116.382 E.41403
G1 X108.568 Y116.182 F7200
G92 E0
G1 X109.929 Y118.541
G1 F600
G1 X111.96 Y118.541 E.06935
G1 X112.976 Y120.3 E.13869
G1 X111.96 Y122.059 E.20804
G1 X109.929 Y122.059 E.27739
G1 X108.914 Y120.3 E.34673
G1 X109.899 Y118.593 E.41403
G1 X109.929 Y118.141 F7200
G92 E0
G1 X108.221 Y120.7
G1 F600
G1 X109.315 Y122.594 E.07467
G1 X105.097 Y122.594 E.21868
G1 X106.19 Y120.7 E.29335
G1 X108.161 Y120.7 E.36065
G1 X108.566 Y120.497 F7200
G92 E0
G1 X105.497 Y120.3
G1 F600
G1 X104.482 Y122.059 E.06935
G1 X102.451 Y122.059 E.13869
G1 X101.435 Y120.3 E.20804
G1 X102.451 Y118.541 E.27739
G1 X104.482 Y118.541 E.34673
G1 X105.467 Y120.248 E.41403
G1 X105.844 Y120.5 F7200
G92 E0
G1 X104.482 Y117.741
G1 F600
G1 X102.451 Y117.741 E.06935
G1 X101.435 Y115.982 E.13869
G1 X102.451 Y114.223 E.20804
G1 X104.482 Y114.223 E.27739
G1 X105.497 Y115.982 E.34673
G1 X104.512 Y117.689 E.41403
G1 X104.482 Y118.141 F7200
G92 E0
G1 X104.742 Y117.822
G1 X105.805 Y115.982
G1 X104.636 Y113.957
G1 X104.482 Y113.957
G1 X104.482 Y113.423
G1 F600
G1 X102.451 Y113.423 E.06935
G1 X101.435 Y111.665 E.13869
G1 X102.451 Y109.906 E.20804
G1 X104.482 Y109.906 E.27739
G1 X105.497 Y111.665 E.34673
G1 X104.512 Y113.371 E.41403
G1 X104.482 Y113.823 F7200
G92 E0
G1 X104.742 Y113.505
G1 X105.805 Y111.665
G1 X104.636 Y109.64
G1 X102.34 Y109.64
G1 X100.896 Y107.213
G1 X98.558 Y107.213
G1 X97.389 Y105.188
G1 X98.558 Y103.163
G1 X98.571 Y103.163
G1 X97.003 Y100.737
G1 X97.003 Y100.47
G1 F600
G1 X94.972 Y100.47 E.06935
G1 X93.957 Y98.711 E.13869
G1 X94.972 Y96.953 E.20804
G1 X97.003 Y96.953 E.27739
G1 X98.019 Y98.711 E.34673
G1 X97.033 Y100.418 E.41403
G1 X97.003 Y100.87 F7200
G92 E0
G1 X98.712 Y98.311
G1 F600
G1 X97.696 Y96.553 E.06935
G1 X97.903 Y96.194 E.08349
G1 X101.551 Y96.194 E.20804
G1 X101.758 Y96.553 E.22219
G1 X100.743 Y98.311 E.29153
G1 X98.772 Y98.311 E.35883
G1 X98.365 Y98.511 F7200
G1 X98.712 Y99.111
G1 F600
G1 X100.743 Y99.111 E.42818
G2 X101.758 Y100.870 I917.697 J-528.369 E0.49752
G1 X100.743 Y102.629 E.56687
G1 X98.712 Y102.629 E.63622
G1 X97.696 Y100.87 E.70556
G1 X98.682 Y99.163 E.77286
G1 X98.712 Y98.711 F7200
G92 E0
G1 X97.003 Y101.27
G1 F600
G1 X98.019 Y103.029 E.06935
G1 X97.003 Y104.788 E.13869
G1 X94.972 Y104.788 E.20804
G1 X93.957 Y103.029 E.27739
G1 X94.972 Y101.27 E.34673
G1 X96.943 Y101.27 E.41403
G1 X97.35 Y101.07 F7200
G92 E0
G1 X98.712 Y103.429
G1 F600
G1 X100.743 Y103.429 E.06935
G2 X101.758 Y105.188 I917.697 J-528.369 E0.13869
G1 X100.743 Y106.947 E.20804
G1 X98.712 Y106.947 E.27739
G1 X97.696 Y105.188 E.34673
G1 X98.682 Y103.481 E.41403
G1 X98.712 Y103.029 F7200
G92 E0
G1 X97.003 Y105.588
G1 F600
G1 X98.019 Y107.347 E.06935
G1 X97.003 Y109.106 E.13869
G1 X94.972 Y109.106 E.20804
G1 X93.957 Y107.347 E.27739
G1 X94.972 Y105.588 E.34673
G1 X96.943 Y105.588 E.41403
G1 X97.35 Y105.388 F7200
G92 E0
G1 X98.712 Y107.747
G1 F600
G1 X100.743 Y107.747 E.06935
G1 X101.758 Y109.506 E.13869
G1 X100.743 Y111.265 E.20804
G1 X98.712 Y111.265 E.27739
G1 X97.696 Y109.506 E.34673
G1 X98.682 Y107.799 E.41403
G1 X98.712 Y107.347 F7200
G92 E0
G1 X97.003 Y109.906
G1 F600
G1 X98.019 Y111.665 E.06935
G1 X97.003 Y113.423 E.13869
G1 X94.972 Y113.423 E.20804
