; generated by PrusaSlicer 2.5.0+win64 on 2022-09-25 at 09:26:08 UTC
; Postprocessed by [ArcWelder](https://github.com/FormerLurker/ArcWelderLib)
; Copyright(C) 2021 - Brad Hochgesang
; Version: 1.2.0, Branch: HEAD, BuildDate: 2021-11-21T20:25:43Z
; resolution=0.05mm
; path_tolerance=5.0%
; max_radius=9999.00mm
; default_xyz_precision=3
; default_e_precision=5
; extrusion_rate_variance_percent=5.0%


; 

; external perimeters extrusion width = 0.60mm
; perimeters extrusion width = 0.60mm
; infill extrusion width = 0.62mm
; solid infill extrusion width = 0.62mm
; top infill extrusion width = 0.60mm
; first layer extrusion width = 0.61mm

M107
M190 S60 ; set bed temperature and wait for it to be reached
M104 S230 ; set temperature
;TYPE:Custom
G28 ;home all axes
;G29 ;Auto bed levelling
G1 F7200 X110.000 Y110.000
M109 S230 ; set temperature and wait for it to be reached
G21 ; set units to millimeters
G90 ; use absolute coordinates
M82 ; use absolute distances for extrusion
G92 E0
; Filament-specific gcode
M107
;LAYER_CHANGE
;Z:0.3
;HEIGHT:0.3
G1 Z.3 F7200
G1 E-.4 F1800
G92 E0
G1 X53.833 Y53.744 F7200
G1 E.4 F1800
M204 P1000
;TYPE:Skirt/Brim
;WIDTH:0.61
G3 X56.457 Y51.606 I12.172 J12.260 E0.63067
G1 X58.228 Y50.582 E.76984
G1 X59.449 Y50.021 E.86131
G1 X61.385 Y49.362 E1.00047
G1 X63.038 Y48.99 E1.11579
G1 X65.09 Y48.754 E1.25637
G1 X154.062 Y48.73 E7.31117
G3 X165.868 Y53.460 I-0.057 J17.242 E8.19724
G1 X167.643 Y55.419 E8.37717
G3 X171.271 Y66.000 I-13.622 J10.583 E9.15210
G1 X171.252 Y154.785 E15.19416
G1 X170.926 Y157.43 E15.37556
G3 X169.979 Y160.551 I-16.923 J-3.431 E15.59773
G1 X168.997 Y162.555 E15.74963
G3 X163.543 Y168.394 I-14.959 J-8.506 E16.29818
G1 X161.716 Y169.445 E16.4416
G1 X159.465 Y170.378 E16.6074
G1 X157.834 Y170.835 E16.72271
G1 X155.755 Y171.181 E16.86612
G1 X154.062 Y171.27 E16.98145
G1 X65.215 Y171.252 E23.02776
G1 X62.57 Y170.926 E23.20916
G3 X59.449 Y169.979 I3.431 J-16.923 E23.43133
G1 X57.445 Y168.997 E23.58323
G3 X51.606 Y163.543 I8.506 J-14.959 E24.13178
G1 X50.555 Y161.716 E24.2752
G1 X49.622 Y159.465 E24.441
G1 X49.165 Y157.834 E24.55631
G1 X48.819 Y155.755 E24.69972
G1 X48.73 Y154.062 E24.81505
G1 X48.748 Y65.215 E30.86136
G1 X49.074 Y62.57 E31.04275
G3 X50.021 Y59.449 I16.923 J3.431 E31.26493
G1 X51.003 Y57.445 E31.41682
G3 X53.772 Y53.811 I14.585 J8.241 E31.72858
; printing object StackableBox120mm.stl id:0 copy 0
G1 E31.32858
G92 E0
G1 X66.039 Y167.129 F7200
G1 E.4 F1800
;TYPE:Perimeter
;WIDTH:0.61
G3 X52.871 Y153.980 I-0.025 J-13.143 E1.80678
G1 X52.871 Y66.02 E7.79274
G3 X66.020 Y52.871 I13.134 J-0.015 E9.19818
G1 X154.644 Y52.888 E15.22932
G3 X167.129 Y66.183 I-0.657 J13.127 E16.60063
G1 X167.129 Y153.98 E22.57548
G3 X153.980 Y167.129 I-13.143 J0.006 E23.98093
G1 X66.129 Y167.129 E29.95943
G1 X66.039 Y167.674 F7200
G1 F1800
G3 X52.326 Y153.987 I-0.027 J-13.686 E31.42411
G1 X52.326 Y66.013 E37.41098
G3 X66.013 Y52.326 I13.675 J-0.012 E38.87387
G1 X154.671 Y52.342 E44.90729
G3 X167.664 Y65.593 I-0.680 J13.662 E46.29500
G1 X167.674 Y153.987 E52.31044
G3 X153.987 Y167.674 I-13.686 J0.001 E53.77333
G1 X66.129 Y167.674 E59.75229
G1 X66.039 Y168.22 F7200
;TYPE:External perimeter
G1 F1080
G3 X51.780 Y153.994 I-0.027 J-14.232 E61.27486
G1 X51.78 Y66.006 E67.26265
G3 X66.006 Y51.780 I14.221 J-0.005 E68.78298
G1 X154.698 Y51.797 E74.81867
G3 X168.210 Y65.580 I-0.707 J14.207 E76.26201
G1 X168.22 Y153.994 E82.27881
G3 X153.994 Y168.220 I-14.232 J-0.006 E83.79915
G1 X66.129 Y168.22 E89.77856
G1 X65.747 Y167.696 F7200
G1 E89.37856 F1800
G92 E0
G1 X161.222 Y55.17 F7200
G1 E.4 F1800
;TYPE:Solid infill
;WIDTH:0.611778
G1 F1920
G1 X163.252 Y57.2 E.59602
G3 X165.256 Y59.978 I-8.727 J8.407 E0.83062
G1 X160.008 Y54.73 E1.33735
G2 X158.602 Y54.098 I-3.871 J6.732 E1.44270
G1 X165.902 Y61.398 E2.14759
G3 X166.289 Y62.559 I-5.719 J2.551 E2.23120
G1 X157.441 Y53.711 E3.08552
G1 X156.418 Y53.463 E3.15738
G1 X166.537 Y63.582 E4.13447
G1 X166.672 Y64.491 E4.19721
G1 X155.509 Y53.328 E5.27508
G2 X154.651 Y53.244 I-0.969 J5.471 E5.33399
G1 X166.756 Y65.349 E6.50284
G1 X166.774 Y66.141 E6.55692
G1 X153.875 Y53.242 E7.80241
G1 X153.101 Y53.242 E7.85527
G1 X166.774 Y66.915 E9.17552
G1 X166.774 Y67.689 E9.22837
G1 X152.326 Y53.242 E10.62338
G1 X151.552 Y53.241 E10.67624
G1 X166.774 Y68.464 E12.14601
G1 X166.774 Y69.238 E12.19887
G1 X150.778 Y53.241 E13.7434
G1 X150.003 Y53.241 E13.79626
G1 X166.774 Y70.012 E15.41555
G1 X166.774 Y70.786 E15.4684
G1 X149.229 Y53.241 E17.16245
G1 X148.455 Y53.241 E17.21532
G1 X166.774 Y71.56 E18.98412
G1 X166.774 Y72.334 E19.03698
G1 X147.681 Y53.241 E20.88055
G1 X146.906 Y53.241 E20.93341
G1 X166.774 Y73.108 E22.85174
G1 X166.774 Y73.882 E22.9046
G1 X146.132 Y53.24 E24.89769
G1 X145.358 Y53.24 E24.95055
G1 X166.774 Y74.657 E27.0184
G1 X166.774 Y75.431 E27.07125
G1 X144.583 Y53.24 E29.21386
G1 X143.809 Y53.24 E29.26673
G1 X166.774 Y76.205 E31.4841
G1 X166.774 Y76.979 E31.53695
G1 X143.035 Y53.24 E33.82908
G1 X142.261 Y53.24 E33.88195
G1 X166.774 Y77.753 E36.24884
G1 X166.774 Y78.527 E36.30169
G1 X141.486 Y53.24 E38.74334
G1 X140.712 Y53.239 E38.79621
G1 X166.774 Y79.301 E41.31262
G1 X166.774 Y80.076 E41.36547
G1 X139.938 Y53.239 E43.95664
G1 X139.164 Y53.239 E44.00951
G1 X166.774 Y80.85 E46.67544
G1 X166.774 Y81.624 E46.72829
G1 X138.389 Y53.239 E49.46899
G1 X137.615 Y53.239 E49.52185
G1 X166.774 Y82.398 E52.3373
G1 X166.774 Y83.172 E52.39016
G1 X136.841 Y53.239 E55.28037
G1 X136.066 Y53.239 E55.33323
G1 X166.774 Y83.946 E58.2982
G1 X166.774 Y84.72 E58.35106
G1 X135.292 Y53.238 E61.39079
G1 X134.518 Y53.238 E61.44365
G1 X166.774 Y85.495 E64.55815
G1 X166.774 Y86.269 E64.611
G1 X133.744 Y53.238 E67.80026
G1 X132.969 Y53.238 E67.85312
G1 X166.774 Y87.043 E71.11713
G1 X166.774 Y87.817 E71.16999
G1 X132.195 Y53.238 E74.50876
G1 X131.421 Y53.238 E74.56162
G1 X166.774 Y88.591 E77.97516
G1 X166.774 Y89.365 E78.02801
G1 X130.646 Y53.238 E81.51631
G1 X129.872 Y53.237 E81.56917
G1 X166.774 Y90.139 E85.13222
G1 X166.774 Y90.913 E85.18508
G1 X129.098 Y53.237 E88.82289
G1 X128.324 Y53.237 E88.87575
G1 X166.774 Y91.688 E92.58833
G1 X166.774 Y92.462 E92.64118
G1 X127.549 Y53.237 E96.42852
G1 X126.775 Y53.237 E96.48138
G1 X166.774 Y93.236 E100.34348
G1 X166.774 Y94.01 E100.39633
G1 X126.001 Y53.237 E104.33319
G1 X125.227 Y53.237 E104.38605
G1 X166.774 Y94.784 E108.39766
G1 X166.774 Y95.558 E108.45052
G1 X124.452 Y53.236 E112.53689
G1 X123.678 Y53.236 E112.58976
G1 X166.774 Y96.332 E116.75089
G1 X166.774 Y97.107 E116.80375
G1 X122.904 Y53.236 E121.03964
G1 X122.129 Y53.236 E121.09251
G1 X166.774 Y97.881 E125.40316
G1 X166.774 Y98.655 E125.45602
G1 X121.355 Y53.236 E129.84143
G1 X120.581 Y53.236 E129.8943
G1 X166.774 Y99.429 E134.35447
G1 X166.774 Y100.203 E134.40733
G1 X119.807 Y53.236 E138.94226
G1 X119.032 Y53.235 E138.99513
G1 X166.774 Y100.977 E143.60483
G1 X166.774 Y101.751 E143.65768
G1 X118.258 Y53.235 E148.34214
G1 X117.484 Y53.235 E148.395
G1 X166.774 Y102.526 E153.15422
G1 X166.774 Y103.3 E153.20707
G1 X116.709 Y53.235 E158.04105
G1 X115.935 Y53.235 E158.09391
G1 X166.774 Y104.074 E163.00265
G1 X166.774 Y104.848 E163.0555
G1 X115.161 Y53.235 E168.039
G1 X114.387 Y53.235 E168.09187
G1 X166.774 Y105.622 E173.15012
G1 X166.774 Y106.396 E173.20298
G1 X113.612 Y53.234 E178.336
G1 X112.838 Y53.234 E178.38886
G1 X166.774 Y107.17 E183.59664
G1 X166.774 Y107.945 E183.64949
G1 X112.064 Y53.234 E188.93203
G1 X111.29 Y53.234 E188.98489
G1 X166.774 Y108.719 E194.34219
G1 X166.774 Y109.493 E194.39505
G1 X110.515 Y53.234 E199.82711
G1 X109.741 Y53.234 E199.87997
G1 X166.774 Y110.267 E205.38679
G1 X166.774 Y111.041 E205.43964
G1 X108.967 Y53.234 E211.02122
G1 X108.192 Y53.234 E211.07409
G1 X166.774 Y111.815 E216.73043
G1 X166.774 Y112.589 E216.78328
G1 X107.418 Y53.233 E222.51438
G1 X106.644 Y53.233 E222.56724
G1 X166.774 Y113.363 E228.3731
G1 X166.774 Y114.138 E228.42596
G1 X105.87 Y53.233 E234.30658
G1 X105.095 Y53.233 E234.35944
G1 X166.774 Y114.912 E240.31482
G1 X166.774 Y115.686 E240.36768
G1 X104.321 Y53.233 E246.39782
G1 X103.547 Y53.233 E246.45068
G1 X166.774 Y116.46 E252.55558
G1 X166.774 Y117.234 E252.60844
G1 X102.772 Y53.233 E258.7881
G1 X101.998 Y53.232 E258.84096
G1 X166.774 Y118.008 E265.09538
G1 X166.774 Y118.782 E265.14824
G1 X101.224 Y53.232 E271.47742
G1 X100.45 Y53.232 E271.53028
G1 X166.774 Y119.557 E277.93422
G1 X166.774 Y120.331 E277.98708
G1 X99.675 Y53.232 E284.46578
G1 X98.901 Y53.232 E284.51864
G1 X166.774 Y121.105 E291.0721
G1 X166.774 Y121.879 E291.12496
G1 X98.127 Y53.232 E297.75318
G1 X97.353 Y53.232 E297.80604
G1 X166.774 Y122.653 E304.50903
G1 X166.774 Y123.427 E304.56188
G1 X96.578 Y53.231 E311.33962
G1 X95.804 Y53.231 E311.39249
G1 X166.774 Y124.201 E318.24499
G1 X166.774 Y124.976 E318.29784
G1 X95.03 Y53.231 E325.22511
G1 X94.255 Y53.231 E325.27797
G1 X166.774 Y125.75 E332.27999
G1 X166.774 Y126.524 E332.33285
G1 X93.481 Y53.231 E339.40963
G1 X92.707 Y53.231 E339.46249
G1 X166.774 Y127.298 E346.61404
G1 X166.774 Y128.072 E346.66689
G1 X91.933 Y53.231 E353.8932
G1 X91.158 Y53.23 E353.94606
G1 X166.774 Y128.846 E361.24712
G1 X166.774 Y129.62 E361.29998
G1 X90.384 Y53.23 E368.6758
G1 X89.61 Y53.23 E368.72867
G1 X166.774 Y130.395 E376.17925
G1 X166.774 Y131.169 E376.2321
G1 X88.835 Y53.23 E383.75745
G1 X88.061 Y53.23 E383.81031
G1 X166.774 Y131.943 E391.41042
G1 X166.774 Y132.717 E391.46327
G1 X87.287 Y53.23 E399.13814
G1 X86.513 Y53.23 E399.191
G1 X166.774 Y133.491 E406.94062
G1 X166.774 Y134.265 E406.99348
G1 X85.738 Y53.229 E414.81786
G1 X84.964 Y53.229 E414.87073
G1 X166.774 Y135.039 E422.76987
G1 X166.774 Y135.813 E422.82273
G1 X84.19 Y53.229 E430.79663
G1 X83.416 Y53.229 E430.8495
G1 X166.774 Y136.588 E438.89816
G1 X166.774 Y137.362 E438.95102
G1 X82.641 Y53.229 E447.07444
G1 X81.867 Y53.229 E447.12731
G1 X166.774 Y138.136 E455.32549
G1 X166.774 Y138.91 E455.37835
G1 X81.093 Y53.229 E463.65129
G1 X80.318 Y53.228 E463.70416
G1 X166.774 Y139.684 E472.05186
G1 X166.774 Y140.458 E472.10472
G1 X79.544 Y53.228 E480.52718
G1 X78.77 Y53.228 E480.58005
G1 X166.774 Y141.232 E489.07728
G1 X166.774 Y142.007 E489.13013
G1 X77.996 Y53.228 E497.70212
G1 X77.221 Y53.228 E497.75498
G1 X166.774 Y142.781 E506.40173
G1 X166.774 Y143.555 E506.45458
G1 X76.447 Y53.228 E515.17609
G1 X75.673 Y53.228 E515.22895
G1 X166.774 Y144.329 E524.02522
G1 X166.774 Y145.103 E524.07808
G1 X74.898 Y53.227 E532.9491
G1 X74.124 Y53.227 E533.00197
G1 X166.774 Y145.877 E541.94776
G1 X166.774 Y146.651 E542.00061
G1 X73.35 Y53.227 E551.02116
G1 X72.576 Y53.227 E551.07402
G1 X166.774 Y147.426 E560.16933
G1 X166.774 Y148.2 E560.22218
G1 X71.801 Y53.227 E569.39225
G1 X71.027 Y53.227 E569.44512
G1 X166.774 Y148.974 E578.68995
G1 X166.774 Y149.748 E578.7428
G1 X70.253 Y53.227 E588.06239
G1 X69.479 Y53.226 E588.11525
G1 X166.774 Y150.522 E597.5096
G1 X166.774 Y151.296 E597.56246
G1 X68.704 Y53.226 E607.03157
G1 X67.93 Y53.226 E607.08443
G1 X166.774 Y152.07 E616.6283
G1 X166.774 Y152.845 E616.68115
G1 X67.156 Y53.226 E626.29978
G1 X66.381 Y53.226 E626.35265
G1 X166.774 Y153.619 E636.04604
G1 X166.764 Y154.383 E636.09821
G1 X65.618 Y53.237 E645.86431
G1 X64.885 Y53.278 E645.91446
G1 X166.714 Y155.107 E655.74653
G1 X166.635 Y155.802 E655.79429
G1 X64.199 Y53.366 E665.68496
G1 X63.537 Y53.478 E665.73079
G1 X166.53 Y156.471 E675.67525
G1 X166.376 Y157.092 E675.71887
G1 X62.903 Y53.618 E685.70973
G1 X62.299 Y53.789 E685.75255
G1 X166.221 Y157.71 E695.78669
G1 X166.017 Y158.28 E695.82803
G1 X61.715 Y53.979 E705.89887
G1 X61.149 Y54.186 E705.94006
G1 X165.813 Y158.851 E716.04589
G1 X165.571 Y159.383 E716.0858
G1 X60.617 Y54.429 E726.21957
G1 X60.095 Y54.681 E726.25915
G1 X165.319 Y159.905 E736.41896
G1 X165.043 Y160.403 E736.45784
G1 X59.597 Y54.957 E746.63913
G1 X59.116 Y55.25 E746.67758
G1 X164.75 Y160.884 E756.87697
G1 X164.435 Y161.344 E756.915
G1 X58.656 Y55.565 E767.12849
G1 X58.212 Y55.894 E767.16627
G1 X164.106 Y161.788 E777.39085
G1 X163.765 Y162.222 E777.42849
G1 X57.778 Y56.235 E787.66198
G1 X57.372 Y56.603 E787.69939
G1 X163.397 Y162.628 E797.93656
G1 X163.029 Y163.034 E797.97397
G1 X56.967 Y56.971 E808.21479
G1 X56.599 Y57.378 E808.2522
G1 X162.626 Y163.405 E818.48966
G1 X162.215 Y163.768 E818.5271
G1 X56.23 Y57.784 E828.76044
G1 X55.89 Y58.217 E828.79808
G1 X161.783 Y164.11 E839.02252
G1 X161.338 Y164.439 E839.06031
G1 X55.56 Y58.662 E849.2736
G1 X55.247 Y59.122 E849.31164
G1 X160.88 Y164.755 E859.51101
G1 X160.395 Y165.044 E859.54957
G1 X54.953 Y59.603 E869.73041
G1 X54.678 Y60.102 E869.7693
G1 X159.899 Y165.323 E879.92892
G1 X159.377 Y165.575 E879.96851
G1 X54.426 Y60.624 E890.10204
G1 X54.184 Y61.157 E890.14196
G1 X158.84 Y165.812 E900.24699
G1 X158.277 Y166.024 E900.28803
G1 X53.98 Y61.727 E910.3584
G1 X53.777 Y62.297 E910.39976
G1 X157.703 Y166.223 E920.4343
G1 X157.084 Y166.378 E920.47787
G1 X53.622 Y62.916 E930.46761
G1 X53.468 Y63.537 E930.51127
G1 X156.462 Y166.531 E940.45582
G1 X155.788 Y166.631 E940.50235
G1 X53.364 Y64.206 E950.3919
G1 X53.285 Y64.902 E950.43969
G1 X155.106 Y166.723 E960.27097
G1 X154.373 Y166.764 E960.32107
G1 X53.236 Y65.627 E970.08639
G1 X53.226 Y66.391 E970.13858
G1 X153.609 Y166.774 E979.83103
G1 X152.835 Y166.774 E979.88389
G1 X53.226 Y67.165 E989.5016
G1 X53.226 Y67.939 E989.55445
G1 X152.061 Y166.774 E999.09741
G1 X151.287 Y166.774 E999.15027
G1 X53.226 Y68.713 E1008.61848
G1 X53.226 Y69.488 E1008.67133
G1 X150.512 Y166.774 E1018.0648
G1 X149.738 Y166.774 E1018.11766
G1 X53.226 Y70.262 E1027.43638
G1 X53.226 Y71.036 E1027.48923
G1 X148.964 Y166.774 E1036.73321
G1 X148.19 Y166.774 E1036.78606
G1 X53.226 Y71.81 E1045.95529
G1 X53.226 Y72.584 E1046.00814
G1 X147.416 Y166.774 E1055.10263
G1 X146.642 Y166.774 E1055.15548
G1 X53.226 Y73.358 E1064.17522
G1 X53.226 Y74.132 E1064.22807
G1 X145.868 Y166.774 E1073.17306
G1 X145.093 Y166.774 E1073.22591
G1 X53.226 Y74.907 E1082.09616
G1 X53.226 Y75.681 E1082.14901
G1 X144.319 Y166.774 E1090.9445
G1 X143.545 Y166.774 E1090.99736
G1 X53.226 Y76.455 E1099.71811
G1 X53.226 Y77.229 E1099.77096
G1 X142.771 Y166.774 E1108.41696
G1 X141.997 Y166.774 E1108.46982
G1 X53.226 Y78.003 E1117.04107
G1 X53.226 Y78.777 E1117.09393
G1 X141.223 Y166.774 E1125.59044
G1 X140.449 Y166.774 E1125.64329
G1 X53.226 Y79.551 E1134.06505
G1 X53.226 Y80.326 E1134.11791
G1 X139.674 Y166.774 E1142.46492
G1 X138.9 Y166.774 E1142.51778
G1 X53.226 Y81.1 E1150.79004
G1 X53.226 Y81.874 E1150.8429
G1 X138.126 Y166.774 E1159.04042
G1 X137.352 Y166.774 E1159.09327
G1 X53.226 Y82.648 E1167.21605
G1 X53.226 Y83.422 E1167.2689
G1 X136.578 Y166.774 E1175.31693
G1 X135.804 Y166.774 E1175.36979
G1 X53.226 Y84.196 E1183.34307
G1 X53.226 Y84.97 E1183.39592
G1 X135.03 Y166.774 E1191.29446
G1 X134.255 Y166.774 E1191.34731
G1 X53.226 Y85.745 E1199.1711
G1 X53.226 Y86.519 E1199.22396
G1 X133.481 Y166.774 E1206.973
G1 X132.707 Y166.774 E1207.02585
G1 X53.226 Y87.293 E1214.70015
G1 X53.226 Y88.067 E1214.753
G1 X131.933 Y166.774 E1222.35255
G1 X131.159 Y166.774 E1222.40541
G1 X53.226 Y88.841 E1229.93021
G1 X53.226 Y89.615 E1229.98306
G1 X130.385 Y166.774 E1237.43312
G1 X129.611 Y166.774 E1237.48597
G1 X53.226 Y90.389 E1244.86128
G1 X53.226 Y91.163 E1244.91414
G1 X128.837 Y166.774 E1252.2147
G1 X128.062 Y166.774 E1252.26755
G1 X53.226 Y91.938 E1259.49337
G1 X53.226 Y92.712 E1259.54622
G1 X127.288 Y166.774 E1266.69729
G1 X126.514 Y166.774 E1266.75015
G1 X53.226 Y93.486 E1273.82647
G1 X53.226 Y94.26 E1273.87932
G1 X125.74 Y166.774 E1280.8809
G1 X124.966 Y166.774 E1280.93375
G1 X53.226 Y95.034 E1287.86058
G1 X53.226 Y95.808 E1287.91344
G1 X124.192 Y166.774 E1294.76552
G1 X123.418 Y166.774 E1294.81837
G1 X53.226 Y96.582 E1301.59571
G1 X53.226 Y97.357 E1301.64856
G1 X122.643 Y166.774 E1308.35115
G1 X121.869 Y166.774 E1308.40401
G1 X53.226 Y98.131 E1315.03185
G1 X53.226 Y98.905 E1315.0847
G1 X121.095 Y166.774 E1321.6378
G1 X120.321 Y166.774 E1321.69065
G1 X53.226 Y99.679 E1328.169
G1 X53.226 Y100.453 E1328.22186
G1 X119.547 Y166.774 E1334.62546
G1 X118.773 Y166.774 E1334.67831
G1 X53.226 Y101.227 E1341.00717
G1 X53.226 Y102.001 E1341.06002
G1 X117.999 Y166.774 E1347.31413
